;Otomatik Uretim G-Code
;FLAVOR:Marlin
;TIME:3044
;Filament used: 2.20837m
;Layer height: 0.2
;MINX:42.727
;MINY:61.596
;MINZ:0.2
;MAXX:159.91
;MAXY:75.881
;MAXZ:10.25
M82 ;absolute extrusion mode
; Ender 3 Custom Start G-code

G92 E0 ; Reset Extruder

M140 S93 ; Set Heat Bed temperature

M104 S237 ; Set Extruder temperature

G28 ; Home all axes

G29 ; Auto bed-level (BL-Touch)

M500 ; Used to store G29 results in memory

G92 E0 ; Reset Extruder

G1 Z3.0 F3000 ; move z up little to prevent scratching of surface

M109 S237 ; Wait for Extruder temperature

M190 S93 ; Wait for Heat Bed temperature

G1 X0.1 Y0.1 Z0.3 F5000.0 ; move to start-line position

G1 X200.1 Y0.1 Z0.3 F1500.0 E15 ; draw 1st line

G92 E0 ; reset extruder

G1 Z1.0 F3000 ; move z up little to prevent scratching of surface
G92 E0
G92 E0
G1 F1800 E-0.8
;LAYER_COUNT:50
;LAYER:0
M107
G1 F300 Z0.45
;MESH:emirhanpatir.stl
G0 F9000 X43.549 Y62.612 Z0.45
;TYPE:WALL-INNER
G1 F300 Z0.2
G1 F1800 E0
G1 F1137.2 X43.46 Y63.19 E0.02694
G1 F1334.7 X43.466 Y68.07 E0.21846
G0 F9000 X43.989 Y62.787
G0 X55.703 Y62.787
G0 X56.939 Y70.059
G0 X57.765 Y71.01
G1 F1689 X57.251 Y70.406 E0.24306
G1 F1800 X56.937 Y69.887 E0.26071
G1 X56.693 Y69.195 E0.28206
G1 X56.564 Y68.478 E0.30326
G1 X56.523 Y67.752 E0.32443
G1 X56.523 Y63.19 E0.45719
G1 X56.605 Y62.906 E0.46579
G1 F1563.3 X56.948 Y62.62 E0.48076
G1 F1390.7 X61.413 Y62.615 E0.64894
G1 F1575 X61.854 Y62.903 E0.66645
G1 F1451.6 X62.022 Y63.19 E0.67845
G1 F1211.5 X62.023 Y67.773 E0.87661
G1 F1448.3 X61.937 Y68.122 E0.88961
G1 F1800 X61.938 Y68.302 E0.89485
G1 X61.908 Y69.069 E0.91719
G1 X61.814 Y69.725 E0.93647
G1 X61.668 Y70.248 E0.95228
G1 X61.418 Y70.727 E0.968
G1 X61.068 Y71.074 E0.98234
G1 F1684.5 X60.539 Y71.382 E1.00138
G1 F1644.9 X60.222 Y71.445 E1.01167
G1 F1206.9 X59.918 Y71.651 E1.02761
G1 X60.277 Y71.807 E1.0446
G1 F1754.9 X61.042 Y71.72 E1.06758
G1 F1800 X61.386 Y71.603 E1.07816
G1 X61.693 Y71.436 E1.08833
G1 X62.916 Y70.396 E1.13505
G1 X63.312 Y70.365 E1.14661
G1 X63.033 Y69.89 E1.16264
G1 X62.795 Y69.202 E1.18382
G1 X62.671 Y68.523 E1.20391
G1 X62.648 Y68.103 E1.21615
G1 F1448.3 X62.543 Y67.759 E1.22916
G1 F1211.5 X62.542 Y63.19 E1.42671
G1 F1451.6 X62.71 Y62.903 E1.43871
G1 F1563.3 X63.051 Y62.62 E1.45356
G1 F1390.7 X67.516 Y62.615 E1.62174
G1 F1575 X67.957 Y62.903 E1.63926
G1 F1451.6 X68.125 Y63.19 E1.65126
G1 F1213.9 X68.125 Y68.351 E1.87398
G1 F1451.6 X68.028 Y68.696 E1.88691
G1 F1800 X68.011 Y69.07 E1.89781
G1 X67.931 Y69.674 E1.91554
G1 X67.778 Y70.228 E1.93226
G1 X67.53 Y70.715 E1.94817
G1 X67.166 Y71.086 E1.96329
G1 X66.726 Y71.328 E1.97791
G1 X66.636 Y71.358 E1.98067
G1 F1188.7 X66.269 Y71.638 E2.00101
G1 X66.753 Y71.802 E2.02353
G1 F1800 X67.394 Y71.636 E2.0428
G1 X67.806 Y71.426 E2.05626
G1 X68.122 Y71.138 E2.0687
G1 X68.365 Y70.753 E2.08195
G1 X68.56 Y70.199 E2.09904
G1 X68.729 Y69.24 E2.12738
G1 X68.729 Y68.709 E2.14283
G1 F1451.6 X68.645 Y68.36 E2.15579
G1 F1213.9 X68.645 Y63.19 E2.37889
G1 F1451.6 X68.813 Y62.903 E2.39089
G1 F1563.3 X69.154 Y62.62 E2.40574
G1 F1390.7 X71.521 Y62.615 E2.4949
G1 F1575 X71.965 Y62.908 E2.51259
G1 F1800 X72.046 Y63.19 E2.52113
G1 X72.046 Y75.556 E2.881
G1 X72.754 Y75.556 E2.90161
G1 X72.754 Y63.19 E3.26148
G1 X72.835 Y62.908 E3.27002
G1 F1563.3 X73.179 Y62.62 E3.28505
G1 F1390.7 X75.909 Y62.615 E3.38788
G1 F1575 X76.353 Y62.908 E3.40558
G1 F1800 X76.434 Y63.19 E3.41411
G1 X76.435 Y69.692 E3.60333
G1 X76.42 Y70.881 E3.63794
G1 X76.394 Y71.63 E3.65975
G1 X77.006 Y71.63 E3.67756
G1 X77.024 Y71.379 E3.68488
G1 X77.139 Y71.141 E3.69258
G1 X77.364 Y70.987 E3.70051
G1 X77.476 Y70.961 E3.70386
G1 X77.749 Y71 E3.71188
G1 X77.969 Y71.096 E3.71887
G1 F1702.7 X78.42 Y71.269 E3.73373
G1 F1636.4 X78.581 Y71.348 E3.73947
G1 F1627.9 X79.147 Y71.584 E3.7592
G1 F1529.1 X79.426 Y71.684 E3.76936
G1 F1435.1 X79.742 Y71.747 E3.78112
G1 F1406.2 X80.274 Y71.781 E3.80097
G1 F1396.9 X80.274 Y71.307 E3.81875
G1 F1400 X79.874 Y71.311 E3.83372
G1 F1435.1 X79.517 Y71.264 E3.84686
G1 F1529.1 X79.271 Y71.213 E3.85547
G1 F1603.1 X78.651 Y70.967 E3.87726
G1 F1653.5 X78.186 Y70.58 E3.89643
G1 F1750 X77.793 Y70.073 E3.91563
G1 F1800 X77.505 Y69.477 E3.93489
G1 X77.288 Y68.725 E3.95767
G1 X77.18 Y67.958 E3.98021
G1 X77.142 Y67.114 E4.0048
G1 X77.142 Y63.19 E4.119
G1 X77.223 Y62.908 E4.12753
G1 F1563.3 X77.567 Y62.62 E4.14257
G1 F1390.7 X82.413 Y62.615 E4.3251
G1 F1575 X82.857 Y62.908 E4.34279
G1 F1800 X82.938 Y63.19 E4.35133
G1 X82.938 Y75.556 E4.7112
G1 X83.646 Y75.556 E4.73181
G1 X83.646 Y71.212 E4.85823
G1 X83.914 Y70.736 E4.87412
G1 X84.31 Y70.705 E4.88568
G1 F1547.9 X84.925 Y70.937 E4.90793
G1 X84.493 Y70.443 E4.93014
G1 F1800 X84.128 Y69.918 E4.94874
G1 X83.853 Y69.285 E4.96883
G1 X83.698 Y68.599 E4.9893
G1 X83.646 Y67.866 E5.01068
G1 X83.646 Y63.19 E5.14676
G1 X83.727 Y62.908 E5.1553
G1 F1563.3 X84.071 Y62.62 E5.17033
G1 F1390.7 X89.082 Y62.615 E5.35908
G1 F1575 X89.527 Y62.91 E5.37684
G1 F1800 X89.607 Y63.19 E5.38531
G1 X89.607 Y68.297 E5.53393
G1 X89.595 Y68.818 E5.5491
G1 X89.555 Y69.309 E5.56344
G1 X89.486 Y69.732 E5.57591
G1 X89.367 Y70.143 E5.58836
G1 F1529.1 X88.962 Y70.943 E5.61908
G1 F1393.8 X88.522 Y71.222 E5.63866
G1 F1521.7 X88.132 Y71.366 E5.65297
G1 F1671.1 X87.742 Y71.45 E5.66548
G1 F1448.3 X87.425 Y71.664 E5.67931
G1 X87.786 Y71.803 E5.6933
G1 F1671.1 X88.225 Y71.751 E5.70716
G1 F1465.1 X88.802 Y71.584 E5.72864
G1 F1291 X89.249 Y71.348 E5.74915
G1 F1218.6 X89.335 Y71.274 E5.75402
G1 F1422.1 X89.654 Y71.123 E5.76702
G1 F1759.8 X89.926 Y70.743 E5.78093
G1 F1800 X90.139 Y70.204 E5.7978
G1 X90.325 Y69.248 E5.82614
G1 X90.325 Y63.19 E6.00244
G1 X90.405 Y62.91 E6.01092
G1 F1563.3 X90.75 Y62.62 E6.02602
G1 F1390.7 X92.956 Y62.615 E6.10911
G1 F1575 X93.43 Y62.962 E6.12865
G1 F1800 X93.475 Y63.1 E6.13287
G1 X93.471 Y63.335 E6.13971
G1 X93.3 Y63.699 E6.15142
G1 X93.314 Y63.883 E6.15679
G1 X93.267 Y64.543 E6.17604
G1 X93.316 Y65.089 E6.192
G1 X93.292 Y65.425 E6.2018
G1 X93.455 Y65.709 E6.21133
G1 F1455 X93.705 Y65.971 E6.22437
G1 F1223.3 X93.835 Y66.204 E6.23579
G1 F1280.5 X94.191 Y66.601 E6.25761
G1 F1445 X94.798 Y67.02 E6.28435
G1 F1555.6 X95.236 Y67.29 E6.30167
G1 F1540.3 X95.657 Y67.32 E6.31603
G1 F1235.3 X96.041 Y67.246 E6.33261
G1 X95.707 Y67.041 E6.34923
G1 F1547.9 X95.344 Y66.885 E6.3626
G1 F1559.4 X95.01 Y66.68 E6.37576
G1 F1489.4 X94.636 Y66.384 E6.39254
G1 F1369.6 X94.432 Y66.163 E6.40404
G1 F1296.3 X94.175 Y65.792 E6.42228
G1 F1489.4 X94.133 Y65.397 E6.43625
G1 F1800 X94.046 Y64.963 E6.44913
G1 X94.02 Y64.529 E6.46179
G1 X94.057 Y64.007 E6.47701
G1 X94.165 Y63.569 E6.49014
G1 X94.359 Y63.157 E6.5034
G1 F1627.9 X94.804 Y62.609 E6.52611
G1 F1326.3 X95.312 Y62.578 E6.54621
G1 F1177.6 X95.941 Y62.566 E6.5742
G1 F1168.8 X96.456 Y62.573 E6.59728
G1 F1283.1 X97.345 Y62.615 E6.63362
G1 F1400 X98.105 Y62.615 E6.66205
G1 F1575 X98.398 Y62.753 E6.67282
G1 F1800 X98.698 Y62.954 E6.68333
G1 X99.125 Y63.333 E6.69995
G1 X99.401 Y63.655 E6.71229
G1 X99.711 Y64.125 E6.72868
G1 X99.924 Y64.57 E6.74303
G1 X100.08 Y65.033 E6.75725
G1 X100.168 Y65.496 E6.77097
G1 X100.194 Y65.871 E6.78191
G1 X100.19 Y66.894 E6.81168
G1 F1594.9 X100.062 Y67.178 E6.82191
G1 F1296.3 X99.681 Y67.419 E6.84013
G1 X100.068 Y67.664 E6.85864
G1 F1594.9 X100.197 Y68.035 E6.87154
G1 F1800 X100.196 Y68.651 E6.88946
G1 X100.165 Y69.242 E6.90669
G1 X100.054 Y69.809 E6.9235
G1 F1451.6 X100.036 Y70.107 E6.93427
G1 F1262.5 X99.904 Y70.408 E6.94791
G1 F1400 X99.54 Y70.854 E6.96945
G1 F1547.9 X99.152 Y71.129 E6.98554
G1 F1636.4 X98.898 Y71.252 E6.99458
G1 F1740.3 X98.614 Y71.361 E7.00374
G1 F1842.1 X98.261 Y71.442 E7.01403
G1 F1920.7 X97.983 Y71.488 E7.02172
G1 F1981.1 X97.444 Y71.52 E7.036
G1 F2045.5 X96.8 Y71.483 E7.05252
G1 F2058.8 X96.228 Y71.397 E7.06723
G1 F1968.8 X95.86 Y71.3 E7.07736
G1 F1852.9 X95.357 Y71.035 E7.09343
G1 F1540.3 X95.031 Y70.781 E7.10749
G1 F1318 X94.696 Y70.302 E7.13072
G1 F1245.1 X94.563 Y69.987 E7.1451
G1 F1213.9 X94.037 Y70.035 E7.1679
G1 X94.173 Y70.423 E7.18564
G1 F1275.3 X94.397 Y70.695 E7.20011
G1 F1403.1 X94.818 Y71.162 E7.22359
G1 F1599 X95.265 Y71.389 E7.24001
G1 F1784.7 X95.838 Y71.654 E7.25854
G1 F1914.9 X96.265 Y71.718 E7.27035
G1 F2079.2 X96.809 Y71.782 E7.28415
G1 F2045.5 X97.451 Y71.839 E7.30066
G1 F1981.1 X98.001 Y71.805 E7.31523
G1 F1920.7 X98.319 Y71.775 E7.32394
G1 F1842.1 X98.713 Y71.69 E7.3354
G1 F1740.3 X99.03 Y71.605 E7.34528
G1 F1636.4 X99.348 Y71.466 E7.35639
G1 F1532.8 X99.599 Y71.343 E7.36594
G1 F1393.8 X100.044 Y70.997 E7.38713
G1 F1280.5 X100.375 Y70.59 E7.40859
G1 F1228.1 X100.506 Y70.324 E7.42124
G1 F1403.1 X100.719 Y70.075 E7.43347
G1 F1730.8 X100.864 Y69.532 E7.45048
G1 F1800 X100.923 Y68.75 E7.4733
G1 X100.923 Y64.232 E7.60478
G1 X100.936 Y63.856 E7.61573
G1 X100.978 Y63.494 E7.62634
G1 X101.078 Y63.066 E7.63913
G1 F1615.4 X101.321 Y62.639 E7.65506
G1 F1360.7 X101.546 Y62.594 E7.66389
G1 F1291 X102.235 Y62.598 E7.69185
G1 F1351.9 X102.724 Y62.615 E7.71081
G1 F1400 X104.137 Y62.615 E7.76368
G1 F1575 X104.581 Y62.908 E7.78137
G1 F1800 X104.662 Y63.19 E7.78991
G1 X104.659 Y70.741 E8.00966
G1 F1441.6 X104.737 Y71.122 E8.02379
G1 F1213.9 X104.722 Y71.547 E8.04214
G1 F1225.7 X105.21 Y71.547 E8.063
G1 F1213.9 X105.258 Y71.163 E8.0797
G1 F1441.6 X105.426 Y70.957 E8.08936
G1 F1800 X105.64 Y70.77 E8.09763
G1 F1716.6 X105.994 Y70.731 E8.1085
G1 F1571.1 X106.599 Y70.973 E8.13022
G1 F1425.3 X106.735 Y71.01 E8.1354
G1 F1544.1 X106.19 Y70.416 E8.16275
G1 F1800 X105.852 Y69.909 E8.18048
G1 X105.577 Y69.251 E8.20124
G1 X105.425 Y68.544 E8.22228
G1 X105.37 Y67.756 E8.24527
G1 X105.37 Y63.19 E8.37815
G1 X105.451 Y62.908 E8.38669
G1 F1563.3 X105.795 Y62.62 E8.40172
G1 F1390.7 X110.807 Y62.615 E8.59051
G1 F1575 X111.252 Y62.91 E8.60826
G1 F1800 X111.333 Y63.19 E8.61674
G1 X111.332 Y68.297 E8.76537
G1 X111.321 Y68.808 E8.78024
G1 X111.281 Y69.256 E8.79333
G1 X111.211 Y69.685 E8.80598
G1 X111.093 Y70.105 E8.81868
G1 X110.965 Y70.393 E8.82785
G1 X110.825 Y70.619 E8.83559
G1 F1514.4 X110.692 Y70.941 E8.84764
G1 F1354.8 X110.28 Y71.207 E8.8666
G1 F1500 X109.867 Y71.37 E8.8821
G1 F1684.5 X109.476 Y71.45 E8.89451
G1 F1220.9 X109.153 Y71.658 E8.911
G1 X109.511 Y71.803 E8.92757
G1 F1684.5 X109.954 Y71.753 E8.94143
G1 F1475.4 X110.545 Y71.581 E8.96329
G1 F1293.6 X110.98 Y71.347 E8.98329
G1 F1218.6 X111.063 Y71.277 E8.98796
G1 F1422.1 X111.382 Y71.122 E9.00102
G1 F1759.8 X111.654 Y70.733 E9.01515
G1 F1800 X111.866 Y70.187 E9.03219
G1 X111.999 Y69.495 E9.0527
G1 X112.049 Y68.596 E9.0789
G1 X112.049 Y63.19 E9.23623
G1 X112.129 Y62.91 E9.2447
G1 F1563.3 X112.474 Y62.62 E9.25981
G1 F1390.7 X120.68 Y62.615 E9.56889
G1 F1575 X121.138 Y62.931 E9.5874
G1 F1800 X121.206 Y63.19 E9.59519
G1 X121.205 Y74.823 E9.93374
G1 X121.678 Y74.823 E9.9475
G1 F1689 X122.545 Y74.8 E9.9744
G1 F1571.1 X126.45 Y74.794 E10.1046
G1 F1500 X127.497 Y74.715 E10.14127
G1 F1461.7 X127.982 Y74.618 E10.159
G1 F1400 X128.346 Y74.517 E10.17313
G1 F1299 X129.067 Y74.208 E10.20476
G1 F1277.9 X129.258 Y74.085 E10.21408
G1 F1390.7 X129.657 Y73.918 E10.23037
G1 F1640.6 X130.184 Y73.353 E10.25504
G1 F1800 X130.52 Y72.75 E10.27513
G1 X130.725 Y72.042 E10.29658
G1 X130.797 Y71.208 E10.32094
G1 X130.691 Y69.974 E10.35698
G1 X130.174 Y69.033 E10.38823
G1 X129.989 Y68.825 E10.39633
G1 F1451.6 X129.694 Y68.621 E10.40927
G1 F1218.6 X129.642 Y68.561 E10.41268
G1 F1277.9 X129.397 Y68.354 E10.42583
G1 F1329.1 X129.057 Y68.112 E10.44228
G1 F1354.8 X128.364 Y67.79 E10.47183
G1 F1465.1 X127.909 Y67.66 E10.48874
G1 F1514.4 X127.54 Y67.583 E10.50178
G1 F1544.1 X126.476 Y67.494 E10.538
G1 F1611.3 X122.497 Y67.494 E10.66737
G1 F1702.7 X122.297 Y67.416 E10.67397
G1 F1794.9 X122.161 Y67.31 E10.679
G1 F1800 X122.02 Y67.028 E10.68818
G1 X122.02 Y63.091 E10.80275
G1 X122.088 Y62.931 E10.80781
G1 F1563.3 X122.445 Y62.62 E10.82368
G1 F1390.7 X133.126 Y62.615 E11.22599
G1 F1575 X133.601 Y62.964 E11.24559
G1 F1800 X133.645 Y63.1 E11.24975
G1 F1805.2 X133.641 Y63.294 E11.25538
G1 X133.489 Y63.918 E11.27402
G1 F1800 X133.445 Y64.543 E11.29225
G1 X133.503 Y65.207 E11.31165
G1 X133.618 Y65.599 E11.32354
G1 F1632.1 X133.724 Y65.793 E11.33064
G1 F1337.6 X133.869 Y65.947 E11.33892
G1 F1220.9 X134.013 Y66.203 E11.35152
G1 F1280.5 X134.369 Y66.6 E11.37334
G1 F1400 X134.633 Y66.79 E11.38551
G1 F1518.1 X134.982 Y67.024 E11.40001
G1 F1559.4 X135.414 Y67.289 E11.41703
G1 F1547.9 X135.84 Y67.321 E11.43149
G1 F1237.7 X136.221 Y67.245 E11.44793
G1 X135.89 Y67.042 E11.46436
G1 F1551.7 X135.525 Y66.885 E11.47778
G1 F1555.6 X135.123 Y66.635 E11.49372
G1 F1482.4 X134.813 Y66.382 E11.50786
G1 F1349 X134.548 Y66.081 E11.52343
G1 F1250 X134.339 Y65.731 E11.54051
G1 F1448.3 X134.308 Y65.387 E11.55301
G1 F1800 X134.22 Y64.932 E11.56649
G1 X134.198 Y64.529 E11.57824
G1 X134.23 Y64.028 E11.59285
G1 X134.353 Y63.551 E11.60718
G1 X134.537 Y63.157 E11.61984
G1 F1627.9 X134.982 Y62.609 E11.64255
G1 F1326.3 X135.49 Y62.578 E11.66266
G1 F1177.6 X136.12 Y62.566 E11.69069
G1 F1168.8 X136.634 Y62.573 E11.71372
G1 F1283.1 X137.523 Y62.615 E11.75006
G1 F1400 X138.284 Y62.615 E11.77853
G1 F1575 X138.577 Y62.753 E11.7893
G1 F1800 X138.934 Y62.998 E11.8019
G1 X139.303 Y63.333 E11.81641
G1 X139.579 Y63.655 E11.82875
G1 X139.889 Y64.125 E11.84514
G1 X140.101 Y64.57 E11.85948
G1 X140.239 Y64.966 E11.87168
G1 X140.337 Y65.427 E11.8854
G1 X140.373 Y65.87 E11.89833
G1 X140.369 Y66.894 E11.92814
G1 F1594.9 X140.241 Y67.178 E11.93837
G1 F1296.3 X139.86 Y67.419 E11.95658
G1 X140.247 Y67.664 E11.97509
G1 F1594.9 X140.376 Y68.035 E11.98799
G1 F1800 X140.375 Y68.652 E12.00595
G1 X140.341 Y69.243 E12.02318
G1 X140.225 Y69.849 E12.04113
G1 F1675.5 X140.054 Y70.343 E12.05748
G1 F1422.1 X140.019 Y70.488 E12.06297
G1 F1409.4 X139.725 Y70.85 E12.0803
G1 F1615.4 X139.275 Y71.168 E12.09817
G1 F1759.8 X138.797 Y71.36 E12.11351
G1 F1842.1 X138.439 Y71.442 E12.12395
G1 F1920.7 X138.161 Y71.488 E12.13164
G1 F1981.1 X137.622 Y71.52 E12.14591
G1 F2045.5 X136.979 Y71.484 E12.1624
G1 F2052.1 X136.407 Y71.397 E12.17717
G1 F1968.8 X136.041 Y71.301 E12.18724
G1 F1852.9 X135.529 Y71.033 E12.20358
G1 F1603.1 X135.216 Y70.775 E12.21683
G1 F1329.1 X134.894 Y70.389 E12.23665
G1 F1213.9 X134.742 Y69.987 E12.25519
G1 X134.216 Y70.035 E12.27799
G1 X134.351 Y70.423 E12.29571
G1 X134.599 Y70.683 E12.31122
G1 F1320.8 X134.809 Y70.962 E12.32507
G1 F1458.3 X134.996 Y71.162 E12.3349
G1 F1603.1 X135.447 Y71.392 E12.35145
G1 F1784.7 X136.029 Y71.656 E12.37021
G1 F1914.9 X136.444 Y71.718 E12.38168
G1 F2072.4 X136.949 Y71.779 E12.39454
G1 F2045.5 X137.629 Y71.839 E12.41202
G1 F1981.1 X138.179 Y71.805 E12.42659
G1 F1920.7 X138.497 Y71.775 E12.43531
G1 F1842.1 X138.896 Y71.689 E12.44691
G1 F1740.3 X139.209 Y71.605 E12.45667
G1 F1632.1 X139.523 Y71.467 E12.46767
G1 F1532.8 X139.775 Y71.344 E12.47726
G1 F1393.8 X140.224 Y70.996 E12.49861
G1 F1315.2 X140.395 Y70.791 E12.50924
G1 F1422.1 X140.566 Y70.658 E12.51722
G1 F1619.5 X140.988 Y70.226 E12.53675
G1 F1735.5 X141.102 Y68.77 E12.58083
G1 F1800 X141.102 Y64.232 E12.7129
G1 X141.113 Y63.859 E12.72376
G1 X141.156 Y63.494 E12.73445
G1 X141.256 Y63.066 E12.74724
G1 F1615.4 X141.497 Y62.641 E12.76309
G1 F1360.7 X141.724 Y62.594 E12.77201
G1 F1291 X142.413 Y62.598 E12.79997
G1 F1351.9 X142.904 Y62.615 E12.81901
G1 F1396.9 X144.452 Y62.614 E12.87706
G1 F1571.1 X144.921 Y62.952 E12.89633
G1 F1800 X144.977 Y63.121 E12.90151
G1 X144.976 Y70.922 E13.12854
G1 F1544.1 X144.871 Y71.205 E13.13878
G1 F1202.3 X144.522 Y71.514 E13.15909
G1 X144.899 Y71.778 E13.17914
G1 F1544.1 X145.018 Y71.961 E13.18654
G1 F1800 X145.462 Y73.993 E13.24707
G1 X145.685 Y73.993 E13.25356
G1 X145.685 Y72.074 E13.30941
G1 X145.791 Y71.837 E13.31697
G1 F1349 X146.155 Y71.515 E13.33584
G1 F1200 X145.792 Y71.208 E13.35659
G1 F1544.1 X145.686 Y70.922 E13.36694
G1 F1800 X145.685 Y64.189 E13.56288
G1 X145.707 Y63.77 E13.57509
G1 X145.751 Y63.482 E13.58357
G1 X145.851 Y63.153 E13.59358
G1 X146.016 Y62.864 E13.60326
G1 F1451.6 X146.245 Y62.599 E13.6159
G1 F1206.9 X146.62 Y62.576 E13.63221
G1 F1225.7 X147.332 Y62.589 E13.66264
G1 F1323.5 X148.005 Y62.615 E13.6893
G1 F1400 X150.25 Y62.615 E13.7733
G1 F1575 X150.694 Y62.908 E13.79099
G1 F1800 X150.775 Y63.19 E13.79953
G1 X150.775 Y71.63 E14.04515
G1 X151.483 Y71.63 E14.06575
G1 X151.483 Y63.19 E14.31137
G1 X151.564 Y62.908 E14.31991
G1 F1563.3 X151.908 Y62.62 E14.33495
G1 F1390.7 X155.169 Y62.615 E14.45778
G1 F1575 X155.58 Y62.863 E14.47374
G1 F1800 X155.695 Y63.19 E14.48383
G1 X155.694 Y69.742 E14.6745
G1 X155.68 Y70.881 E14.70765
G1 X155.654 Y71.63 E14.72946
G1 X156.266 Y71.63 E14.74727
G1 X156.284 Y71.379 E14.7546
G1 X156.399 Y71.141 E14.76229
G1 X156.624 Y70.987 E14.77022
G1 X156.738 Y70.961 E14.77363
G1 X157.008 Y71.001 E14.78157
G1 X157.229 Y71.096 E14.78857
G1 F1702.7 X157.68 Y71.269 E14.80343
G1 F1636.4 X157.841 Y71.348 E14.80917
G1 F1627.9 X158.407 Y71.584 E14.82891
G1 F1529.1 X158.686 Y71.684 E14.83906
G1 F1435.1 X159.002 Y71.747 E14.85082
G1 F1406.2 X159.534 Y71.781 E14.87068
G1 F1396.9 X159.534 Y71.307 E14.88845
G1 F1400 X159.133 Y71.311 E14.90346
G1 F1475.4 X158.588 Y71.239 E14.92298
G1 F1582.9 X157.909 Y70.966 E14.94719
G1 F1662.3 X157.442 Y70.577 E14.96635
G1 F1750 X157.056 Y70.081 E14.98516
G1 F1800 X156.764 Y69.477 E15.00468
G1 X156.547 Y68.725 E15.02746
G1 X156.439 Y67.958 E15.05
G1 X156.401 Y67.114 E15.07459
G1 X156.401 Y62.115 E15.22007
G1 X155.94 Y62.115 E15.23349
G1 F1575 X155.169 Y62.165 E15.25918
G1 F1390.7 X151.869 Y62.168 E15.38348
G1 F1563.3 X151.129 Y62.115 E15.40834
G1 F1575 X150.25 Y62.165 E15.43762
G1 F1390.7 X147.903 Y62.16 E15.52603
G1 F1315.2 X147.357 Y62.087 E15.54797
G1 F1232.9 X146.988 Y62.06 E15.56369
G1 F1204.6 X146.604 Y62.05 E15.58039
G1 F1213.9 X146.108 Y62.12 E15.60201
G1 F1461.7 X145.73 Y62.101 E15.61557
G1 F1800 X145.437 Y62.108 E15.6241
G1 F1571.1 X144.452 Y62.162 E15.65699
G1 F1390.7 X142.813 Y62.161 E15.71873
G1 F1346.2 X142.433 Y62.117 E15.73361
G1 F1293.6 X142.149 Y62.098 E15.74514
G1 F1272.7 X141.843 Y62.092 E15.75774
G1 F1257.5 X141.468 Y62.124 E15.77341
G1 F1296.3 X141.254 Y62.156 E15.78216
G1 F1525.4 X141.112 Y62.12 E15.78719
G1 F1774.6 X138.77 Y62.116 E15.85632
G1 F1575 X138.284 Y62.165 E15.87256
G1 F1400 X137.523 Y62.165 E15.90104
G1 F1334.7 X137.164 Y62.105 E15.91532
G1 F1228.1 X136.662 Y62.042 E15.9369
G1 F1168.8 X136.118 Y62.02 E15.9613
G1 F1177.6 X135.45 Y62.055 E15.99106
G1 F1257.5 X134.871 Y62.172 E16.01567
G1 F1393.8 X134.775 Y62.154 E16.01934
G1 F1623.7 X134.402 Y62.115 E16.03144
G1 F1800 X134.136 Y62.116 E16.03918
G1 F1575 X133.126 Y62.165 E16.07281
G1 F1390.7 X122.406 Y62.168 E16.47659
G1 F1563.3 X121.613 Y62.116 E16.50322
G1 F1575 X120.68 Y62.165 E16.53429
G1 F1390.7 X112.435 Y62.168 E16.84485
G1 F1563.3 X111.691 Y62.116 E16.86984
G1 F1575 X110.807 Y62.165 E16.89929
G1 F1390.7 X105.756 Y62.168 E17.08954
G1 F1563.3 X105.016 Y62.115 E17.1144
G1 F1575 X104.137 Y62.165 E17.14368
G1 F1393.8 X102.635 Y62.161 E17.20013
G1 F1346.2 X102.255 Y62.117 E17.21502
G1 F1293.6 X101.97 Y62.098 E17.22659
G1 F1272.7 X101.664 Y62.092 E17.23918
G1 F1257.5 X101.289 Y62.124 E17.25486
G1 F1296.3 X101.075 Y62.156 E17.2636
G1 F1525.4 X100.933 Y62.12 E17.26864
G1 F1774.6 X98.591 Y62.116 E17.33777
G1 F1575 X98.105 Y62.165 E17.35401
G1 F1400 X97.345 Y62.165 E17.38245
G1 F1334.7 X96.986 Y62.105 E17.39673
G1 F1228.1 X96.484 Y62.042 E17.41831
G1 F1168.8 X95.939 Y62.02 E17.44276
G1 F1177.6 X95.272 Y62.055 E17.47247
G1 F1257.5 X94.693 Y62.172 E17.49708
G1 F1393.8 X94.597 Y62.154 E17.50075
G1 F1623.7 X94.224 Y62.115 E17.51285
G1 F1800 X93.963 Y62.116 E17.52044
G1 F1575 X92.956 Y62.165 E17.55398
G1 F1390.7 X90.711 Y62.168 E17.63854
G1 F1563.3 X89.966 Y62.115 E17.66356
G1 F1575 X89.082 Y62.165 E17.69301
G1 F1390.7 X84.032 Y62.168 E17.88323
G1 F1563.3 X83.292 Y62.115 E17.90809
G1 F1575 X82.413 Y62.165 E17.93737
G1 F1390.7 X77.528 Y62.168 E18.12137
G1 F1563.3 X76.788 Y62.115 E18.14623
G1 F1575 X75.909 Y62.165 E18.17551
G1 F1390.7 X73.14 Y62.168 E18.27981
G1 F1563.3 X72.4 Y62.115 E18.30467
G1 F1575 X71.521 Y62.165 E18.33395
G1 F1390.7 X69.115 Y62.168 E18.42457
G1 F1563.3 X68.385 Y62.116 E18.4491
G1 F1575 X67.516 Y62.165 E18.47805
G1 F1390.7 X63.012 Y62.168 E18.64769
G1 F1563.3 X62.282 Y62.116 E18.67222
G1 F1575 X61.413 Y62.165 E18.70117
G1 F1390.7 X56.909 Y62.168 E18.87081
G1 F1563.3 X56.174 Y62.116 E18.8955
G1 F1575 X55.3 Y62.165 E18.92462
G1 F1390.7 X44.253 Y62.168 E19.34072
G1 F1563.3 X43.549 Y62.115 E19.36437
G1 F1800 X43.052 Y62.115 E19.37884
G1 X43.054 Y74.821 E19.74861
G1 X43.532 Y74.821 E19.76252
G1 F1653.5 X44.392 Y74.792 E19.78978
G1 F1532.8 X52.41 Y74.792 E20.06378
G1 X52.41 Y74.38 E20.07786
G1 X44.392 Y74.381 E20.35187
G1 F1653.5 X43.941 Y74.097 E20.36875
G1 F1800 X43.867 Y73.897 E20.37496
G1 X43.867 Y69.411 E20.50551
G1 X44.013 Y69.046 E20.51695
G1 F1671.1 X44.344 Y68.86 E20.52885
G1 F1563.3 X51.828 Y68.86 E20.77963
G1 F1567.2 X51.828 Y68.459 E20.79304
G1 F1563.3 X44.344 Y68.458 E21.04382
G1 F1671.1 X44.013 Y68.273 E21.0557
G1 F1800 X43.867 Y67.985 E21.0651
G1 X43.867 Y63.19 E21.20464
G1 X43.958 Y62.893 E21.21368
G1 F1563.3 X44.292 Y62.62 E21.22814
G1 F1390.7 X55.3 Y62.615 E21.64277
G1 F1575 X55.743 Y62.906 E21.66039
G1 F1800 X55.825 Y63.19 E21.669
G1 X55.821 Y70.742 E21.88877
G1 F1445 X55.897 Y71.146 E21.90368
G1 F1213.9 X55.884 Y71.547 E21.92099
G1 F1223.3 X56.372 Y71.547 E21.94189
G1 F1213.9 X56.418 Y71.188 E21.95751
G1 F1445 X56.593 Y70.971 E21.96761
G1 F1800 X56.759 Y70.818 E21.97418
G1 F1745.2 X57.088 Y70.736 E21.98436
G1 F1640.6 X57.765 Y71.01 E22.00768
G0 F9000 X57.75 Y70.993
G1 F1514.4 X58.228 Y71.265 E22.0267
G1 F1400 X58.855 Y71.528 E22.05214
G1 F1182 X59.407 Y71.645 E22.07715
G1 F1024.4 X59.918 Y71.651 E22.10328
G0 F9000 X61.493 Y71.147
G0 X61.494 Y71.146
G1 F1764.7 X61.619 Y71.03 E22.10835
G0 F9000 X61.939 Y70.356
G0 X62.304 Y68.615
G1 F1640.6 X62.292 Y68.122 E22.12409
G0 F9000 X62.304 Y68.615
G1 F1455 X62.317 Y69.035 E22.13922
G1 F1363.6 X62.225 Y69.763 E22.16741
G1 X62.047 Y70.4 E22.19282
G1 X61.855 Y70.767 E22.20873
G1 X62.667 Y70.075 E22.24971
G1 X62.434 Y69.42 E22.27642
G1 X62.351 Y69.032 E22.29166
G1 F1455 X62.304 Y68.615 E22.30677
G0 F9000 X63.457 Y70.39
G0 X64.326 Y71.248
G1 F1623.7 X64.615 Y71.397 E22.31726
G1 F1360.7 X64.948 Y71.531 E22.33107
G1 F1206.9 X65.505 Y71.648 E22.35578
G1 F1008 X66.172 Y71.651 E22.39044
G1 F893.6 X66.269 Y71.638 E22.39618
G0 F9000 X67.025 Y71.463
G0 X67.605 Y71.136
G0 X67.606 Y71.136
G1 F1730.8 X67.853 Y70.882 E22.4069
G1 F1603.1 X68.022 Y70.587 E22.41801
G1 X68.122 Y70.349 E22.42645
G1 F1627.9 X68.198 Y70.105 E22.43467
G1 F1666.7 X68.282 Y69.735 E22.44659
G1 F1693.5 X68.362 Y69.209 E22.46305
G1 F1712 X68.378 Y68.709 E22.47836
G0 F9000 X68.379 Y62.626
G0 X68.468 Y62.626
G1 F940.3 X68.426 Y62.697 E22.48295
G1 X68.344 Y62.697 E22.48752
G1 X68.302 Y62.626 E22.49212
G1 X68.344 Y62.555 E22.49671
G1 X68.375 Y62.555 E22.49844
G0 F1620 X68.426 Y62.555
G0 F9000 X68.379 Y62.555
G0 X72.324 Y62.387
G0 X72.4 Y63.19
G1 F1759.8 X72.4 Y75.202 E22.856
G0 F9000 X72.476 Y62.387
G0 X76.712 Y62.387
G0 X76.706 Y64.864
G0 X76.679 Y71.137
G0 X76.761 Y71.141
G1 F1800 X76.873 Y70.913 E22.8634
G1 X77.255 Y70.654 E22.87683
G1 X77.434 Y70.613 E22.88217
G1 X77.81 Y70.667 E22.89323
G1 X77.492 Y70.257 E22.90833
G1 X77.182 Y69.612 E22.92915
G1 F1619.5 X76.869 Y68.764 E22.95839
G1 F1438.4 X76.832 Y68.919 E22.96419
G1 F1582.9 X76.785 Y69.569 E22.98576
G1 F1800 X76.761 Y71.141 E23.03151
G0 F9000 X76.679 Y71.137
G0 X76.864 Y68.786
G1 F1393.8 X76.807 Y67.974 E23.0621
G1 F1671.1 X76.788 Y67.09 E23.08982
G1 F1759.8 X76.788 Y63.19 E23.20591
G1 F1794.9 X76.836 Y62.925 E23.21377
G1 F1842.1 X76.932 Y62.722 E23.22016
G1 F1847.5 X77.326 Y62.46 E23.23357
G1 X76.165 Y62.46 E23.26649
G1 X76.644 Y62.722 E23.28197
G1 F1842.1 X76.74 Y62.925 E23.28836
G1 F1794.9 X76.788 Y63.19 E23.29622
G0 F9000 X76.712 Y62.387
G0 X72.476 Y62.387
G0 X72.4 Y63.19
G1 F1794.9 X72.448 Y62.925 E23.30408
G1 F1842.1 X72.544 Y62.722 E23.31046
G1 F1847.5 X72.938 Y62.46 E23.32388
G1 X71.777 Y62.46 E23.3568
G1 X72.256 Y62.722 E23.37228
G1 F1842.1 X72.352 Y62.925 E23.37866
G1 F1794.9 X72.4 Y63.19 E23.38652
G0 F9000 X72.324 Y62.387
G0 X62.348 Y62.387
G0 X62.365 Y62.626
G1 F940.3 X62.323 Y62.697 E23.39112
G1 X62.241 Y62.697 E23.39569
G1 X62.199 Y62.626 E23.40028
G1 X62.241 Y62.555 E23.40488
G1 X62.272 Y62.555 E23.40661
G0 F1620 X62.323 Y62.555
G0 F9000 X62.276 Y62.555
G0 X56.245 Y62.387
G0 X56.173 Y62.629
G0 X56.174 Y62.629
G1 F1133.1 X56.174 Y62.909 E23.41955
G1 F1492.9 X56.174 Y64.53 E23.47643
G1 F1599 X56.174 Y66.151 E23.52953
G1 F1721.3 X56.173 Y67.772 E23.57886
G1 F1662.3 X56.201 Y68.613 E23.60538
G1 F1475.4 X56.222 Y69.275 E23.6289
G1 F1403.1 X56.218 Y70.856 E23.68792
G1 X56.265 Y70.743 E23.69249
G1 X56.558 Y70.473 E23.70737
G1 X56.79 Y70.415 E23.71629
G1 X56.577 Y70.062 E23.73169
G1 X56.31 Y69.33 E23.76078
G1 F1475.4 X56.201 Y68.613 E23.78652
G0 F9000 X56.103 Y62.387
G0 X43.589 Y62.387
G0 X43.46 Y69.411
G1 F1334.7 X43.466 Y73.987 E23.96611
G1 F1160.2 X43.532 Y74.343 E23.98246
G0 F9000 X43.517 Y74.343
G0 X43.46 Y69.411
G1 F1489.4 X43.749 Y68.793 E24.00646
G1 F1644.9 X43.927 Y68.66 E24.01353
G1 X43.749 Y68.527 E24.02061
G1 F1461.7 X43.466 Y68.07 E24.03987
G1 X43.419 Y68.66 E24.06108
G1 F1489.4 X43.46 Y69.411 E24.08754
G1 F1800 E23.28754
G0 F9000 X43.589 Y62.387
G0 X83.216 Y62.387
G0 X83.326 Y68.71
G1 F1800 E24.08754
G1 F1611.3 X83.292 Y67.831 E24.11613
G1 F1759.8 X83.292 Y63.19 E24.25428
G1 F1794.9 X83.34 Y62.925 E24.26214
G1 F1842.1 X83.436 Y62.722 E24.26853
G1 F1847.5 X83.83 Y62.46 E24.28195
G1 X82.669 Y62.46 E24.31486
G1 X83.148 Y62.722 E24.33034
G1 F1842.1 X83.244 Y62.925 E24.33673
G1 F1794.9 X83.292 Y63.19 E24.34459
G0 F9000 X83.326 Y68.71
G1 F1428.6 X83.343 Y69.343 E24.36781
G1 F1375.5 X83.343 Y70.22 E24.40121
G1 F1544.1 X83.292 Y71.212 E24.4349
G1 X83.69 Y70.416 E24.4651
G1 F1375.5 X83.936 Y70.354 E24.47476
G1 X83.773 Y70.111 E24.4859
G1 X83.463 Y69.402 E24.51537
G1 F1428.6 X83.326 Y68.71 E24.54123
G0 F9000 X83.292 Y71.212
G1 F1759.8 X83.292 Y75.202 E24.66001
G0 F9000 X83.775 Y70.573
G0 X84.925 Y70.937
G1 F1390.7 X85.039 Y71.007 E24.66504
G1 F1475.4 X85.539 Y71.275 E24.68519
G1 F1366.6 X86.143 Y71.519 E24.71016
G1 F1156 X86.525 Y71.602 E24.72787
G1 F1050 X86.906 Y71.652 E24.74704
G1 F975.2 X87.407 Y71.657 E24.77395
G0 F9000 X89.429 Y70.82
G0 X89.427 Y70.824
G1 F1615.4 X89.589 Y70.56 E24.784
G1 F1536.6 X89.753 Y70.186 E24.79792
G1 F1599 X89.846 Y69.801 E24.81089
G1 F1590.9 X89.944 Y69.212 E24.83055
G1 X89.96 Y68.826 E24.84328
G1 F1684.5 X89.966 Y63.19 E25.01854
G1 F1759.8 X90.015 Y62.927 E25.0265
G1 F1820.8 X90.111 Y62.725 E25.03294
G1 F1831.4 X90.504 Y62.462 E25.04646
G1 X89.343 Y62.462 E25.07967
G1 X89.821 Y62.725 E25.09528
G1 F1820.8 X89.917 Y62.927 E25.10171
G1 F1759.8 X89.966 Y63.19 E25.10968
G0 F9000 X90.047 Y62.387
G0 X94.205 Y62.394
G0 X93.843 Y63.365
G1 F1475.4 X93.706 Y63.768 E25.12479
G1 F1492.9 X93.676 Y64.047 E25.13463
G1 F1575 X93.644 Y64.54 E25.15107
G1 F1465.1 X93.704 Y65.331 E25.17943
G1 F1468.5 X93.78 Y65.522 E25.18676
G0 F9000 X93.739 Y64.697
G0 X93.843 Y63.365
G1 F1532.8 X94.027 Y62.962 E25.2019
G1 F1518.1 X94.288 Y62.629 E25.2165
G1 F1514.4 X94.444 Y62.499 E25.22352
G1 X93.301 Y62.499 E25.26306
G1 X93.776 Y62.797 E25.28246
G1 F1518.1 X93.851 Y63.036 E25.2911
G1 F1532.8 X93.843 Y63.365 E25.30235
G0 F9000 X94.229 Y65.333
G0 X94.544 Y66.024
G0 X94.96 Y66.448
G0 X96.041 Y67.246
G1 F1080.6 X96.554 Y67.312 E25.32742
G1 F1151.7 X97.11 Y67.361 E25.3528
G1 F1175.4 X99.681 Y67.419 E25.46742
G0 F9000 X100.034 Y67.236
G0 X100.537 Y65.352
G1 F1571.1 X100.558 Y65.846 E25.4839
G1 F1640.6 X100.554 Y66.957 E25.51938
G1 F1288.3 X100.453 Y67.419 E25.5386
G1 F1304.3 X100.56 Y68.035 E25.56371
G1 F1662.3 X100.557 Y68.75 E25.58625
G1 F1640.6 X100.512 Y69.408 E25.6073
G1 F1684.5 X100.403 Y69.879 E25.62234
G0 F9000 X100.425 Y69.527
G0 X100.537 Y65.352
G1 F1632.1 X100.573 Y64.949 E25.63532
G1 F1800 X100.573 Y64.22 E25.65654
G1 X100.586 Y63.844 E25.66749
G1 X100.63 Y63.451 E25.679
G1 X100.738 Y62.984 E25.69295
G1 F1774.6 X100.963 Y62.555 E25.70724
G1 F1764.7 X101.057 Y62.483 E25.71076
G1 F1789.8 X100.329 Y62.465 E25.73207
G1 F1800 X98.598 Y62.466 E25.78245
G1 X98.94 Y62.695 E25.79443
G1 X99.354 Y63.061 E25.81051
G1 X99.669 Y63.43 E25.82463
G1 X100.001 Y63.921 E25.84188
G1 X100.213 Y64.355 E25.85593
G1 X100.391 Y64.851 E25.87127
G1 F1632.1 X100.537 Y65.352 E25.88802
G0 F9000 X100.697 Y63.417
G0 X100.951 Y62.384
G0 X104.94 Y62.387
G0 X105.016 Y63.19
G1 F1754.9 X105.015 Y67.722 E26.0233
G1 F1607.1 X105.047 Y68.624 E26.05272
G1 F1418.9 X105.067 Y69.296 E26.07754
G1 F1357.8 X105.07 Y70.751 E26.13367
G1 X105.439 Y70.405 E26.15319
G1 X105.675 Y70.379 E26.16235
G1 X105.473 Y70.074 E26.17646
G1 X105.178 Y69.349 E26.20666
G1 F1418.9 X105.047 Y68.624 E26.23386
G0 F9000 X106.735 Y71.01
G1 F1418.9 X107.253 Y71.282 E26.25546
G1 F1349 X107.869 Y71.524 E26.28116
G1 F1145.5 X108.285 Y71.608 E26.30057
G1 F1039.6 X108.648 Y71.654 E26.319
G1 F967.7 X109.153 Y71.658 E26.34634
G0 F9000 X111.137 Y70.822
G1 F1551.7 X111.314 Y70.551 E26.35727
G1 F1514.4 X111.481 Y70.151 E26.37226
G1 F1567.2 X111.574 Y69.754 E26.38589
G1 F1607.1 X111.628 Y69.45 E26.39595
G1 F1636.4 X111.687 Y68.596 E26.42336
G1 F1702.7 X111.691 Y63.19 E26.58967
G1 F1769.7 X111.74 Y62.927 E26.59759
G1 F1826.1 X111.836 Y62.725 E26.604
G1 F1836.7 X112.23 Y62.462 E26.61751
G1 X111.066 Y62.462 E26.65071
G1 X111.546 Y62.725 E26.66632
G1 F1826.1 X111.642 Y62.927 E26.67274
G1 F1769.7 X111.691 Y63.19 E26.68066
G0 F9000 X111.61 Y62.387
G0 X105.092 Y62.387
G0 X105.016 Y63.19
G1 F1794.9 X105.064 Y62.925 E26.68852
G1 F1842.1 X105.16 Y62.722 E26.6949
G1 F1847.5 X105.554 Y62.46 E26.70832
G1 X104.393 Y62.46 E26.74124
G1 X104.872 Y62.722 E26.75672
G1 F1842.1 X104.968 Y62.925 E26.7631
G1 F1794.9 X105.016 Y63.19 E26.77096
G0 F9000 X105.092 Y62.387
G0 X121.483 Y62.387
G0 X121.613 Y63.19
G1 F1334.7 X121.619 Y67.113 E26.92492
G0 F9000 X121.613 Y68.425
G1 F1334.7 X121.619 Y74.016 E27.14435
G1 F1171 X121.678 Y74.35 E27.15952
G0 F9000 X122.088 Y74.115
G1 F1800 X122.02 Y73.925 E27.16539
G1 X122.02 Y68.425 E27.32545
G1 X122.161 Y68.066 E27.33668
G1 F1794.9 X122.297 Y67.96 E27.34171
G1 F1702.7 X122.497 Y67.882 E27.34832
G1 F1619.5 X126.396 Y67.884 E27.47443
G1 F1551.7 X127.482 Y68.003 E27.51131
G1 F1475.4 X127.873 Y68.065 E27.52536
G1 F1428.6 X128.186 Y68.206 E27.53795
G1 F1384.6 X128.972 Y68.606 E27.57132
G1 F1331.9 X129.262 Y68.876 E27.5869
G1 F1503.6 X129.41 Y69.274 E27.60169
G1 F1800 X129.746 Y69.772 E27.61918
G1 X129.981 Y71.198 E27.66124
G1 X129.744 Y72.564 E27.70158
G1 X129.168 Y73.364 E27.73027
G1 F1518.1 X128.973 Y73.699 E27.74365
G1 F1323.5 X128.172 Y74.08 E27.77875
G1 F1396.9 X127.823 Y74.228 E27.79297
G1 F1455 X127.443 Y74.283 E27.80679
G1 F1510.8 X126.309 Y74.4 E27.84632
G1 F1582.9 X122.545 Y74.402 E27.97088
G1 F1689 X122.088 Y74.115 E27.98762
G0 F9000 X121.67 Y74.115
G0 X121.613 Y68.425
G1 F1496.4 X121.895 Y67.817 E28.01108
G1 F1666.7 X122.064 Y67.688 E28.01776
G1 X121.895 Y67.559 E28.02444
G1 F1468.5 X121.619 Y67.113 E28.04315
G1 X121.569 Y67.688 E28.06374
G1 F1496.4 X121.613 Y68.425 E28.08959
G0 F9000 X121.613 Y63.19
G1 F1472 X121.682 Y62.945 E28.09864
G1 F1649.2 X121.774 Y62.753 E28.10541
G1 F1698.1 X122.169 Y62.476 E28.12029
G1 X120.973 Y62.476 E28.15718
G1 X121.451 Y62.753 E28.17423
G1 F1649.2 X121.544 Y62.945 E28.181
G1 F1472 X121.613 Y63.19 E28.19006
G0 F9000 X122.142 Y67.354
G0 X126.417 Y67.394
G0 X129.714 Y69.069
G1 F1571.1 X129.859 Y69.255 E28.19792
G1 F1529.1 X130.085 Y69.626 E28.21281
G1 F1329.1 X130.256 Y70.105 E28.23285
G1 F1209.2 X130.391 Y71.204 E28.28082
G1 F1225.7 X130.293 Y71.962 E28.31348
G1 F1277.9 X130.127 Y72.676 E28.34353
G1 F1363.6 X129.853 Y73.112 E28.36331
G1 F1475.4 X129.467 Y73.58 E28.38485
G1 F1800 E27.58485
G0 F9000 X130.266 Y68.968
G0 X126.585 Y67.365
G0 X122.142 Y67.354
G0 X122.142 Y62.787
G0 X133.636 Y62.791
G0 X133.965 Y65.5
G1 F1800 E28.38485
G1 F1623.7 X133.859 Y65.075 E28.39898
G1 F1567.2 X133.822 Y64.54 E28.41691
G1 F1575 X133.86 Y63.976 E28.43571
G1 F1567.2 X134.004 Y63.406 E28.45536
G0 F9000 X134.016 Y63.38
G1 F1518.1 X134.199 Y62.967 E28.47095
G1 F1507.2 X134.465 Y62.628 E28.48592
G1 X134.619 Y62.5 E28.49288
G1 X133.473 Y62.5 E28.53271
G1 X133.948 Y62.798 E28.5522
G1 X134.023 Y63.035 E28.56084
G1 F1518.1 X134.016 Y63.38 E28.57275
G0 F9000 X134.407 Y65.333
G0 X134.723 Y66.024
G0 X135.137 Y66.447
G0 X136.221 Y67.245
G1 F1080.6 X136.732 Y67.312 E28.59773
G1 F1151.7 X137.288 Y67.361 E28.62312
G1 F1175.4 X139.86 Y67.419 E28.73778
G0 F9000 X140.213 Y67.236
G0 X140.715 Y65.351
G1 F1567.2 X140.737 Y65.844 E28.75427
G1 F1640.6 X140.733 Y66.957 E28.78981
G1 F1288.3 X140.632 Y67.419 E28.80904
G1 F1304.3 X140.739 Y68.035 E28.83415
G1 F1657.9 X140.735 Y68.756 E28.85693
G1 F1653.5 X140.689 Y69.376 E28.87662
G1 F1489.4 X140.591 Y70.043 E28.90033
G0 F9000 X141.269 Y63.488
G0 X141.446 Y62.784
G0 X144.855 Y62.787
G0 X144.855 Y71.279
G0 X143.872 Y71.516
G1 F1086.2 X144.522 Y71.514 E28.93168
G0 F9000 X145.331 Y70.952
G1 F1745.2 X145.331 Y64.173 E29.13516
G1 F1721.3 X145.34 Y63.809 E29.14624
G1 F1571.1 X145.367 Y63.424 E29.15911
G0 F9000 X145.366 Y63.395
G1 F1521.7 X145.536 Y62.91 E29.1768
G1 F1540.3 X145.769 Y62.554 E29.19127
G1 F1547.9 X145.949 Y62.447 E29.19836
G1 F1551.7 X145.649 Y62.485 E29.20857
G1 X144.78 Y62.489 E29.2379
G1 X145.258 Y62.78 E29.2568
G1 X145.34 Y63.026 E29.26555
G1 F1532.8 X145.366 Y63.395 E29.27819
G0 F9000 X145.255 Y62.387
G0 X141.129 Y62.384
G0 X140.886 Y63.543
G0 X140.715 Y65.351
G1 F1627.9 X140.752 Y64.949 E29.29118
G1 F1800 X140.752 Y64.221 E29.31237
G1 X140.763 Y63.848 E29.32323
G1 X140.808 Y63.451 E29.33485
G1 X140.916 Y62.984 E29.3488
G1 F1774.6 X141.142 Y62.555 E29.36312
G1 F1764.7 X141.236 Y62.483 E29.36663
G1 F1789.8 X140.507 Y62.465 E29.38797
G1 F1800 X138.777 Y62.466 E29.43832
G1 X139.124 Y62.698 E29.45047
G1 X139.569 Y63.105 E29.46802
G1 X139.847 Y63.43 E29.48046
G1 X140.148 Y63.875 E29.4961
G1 X140.406 Y64.38 E29.5126
G1 X140.57 Y64.851 E29.52712
G1 F1627.9 X140.715 Y65.351 E29.54387
G0 F9000 X140.875 Y63.417
G0 X141.129 Y62.384
G0 X145.255 Y62.387
G0 X145.331 Y70.952
G1 F1740.3 X145.287 Y71.157 E29.55018
G1 F1750 X145.182 Y71.369 E29.55726
G1 X145.075 Y71.482 E29.56192
G1 X145.194 Y71.585 E29.56663
G1 F1754.9 X145.366 Y71.923 E29.57795
G1 F1759.8 X145.508 Y71.624 E29.5878
G1 X145.623 Y71.516 E29.5925
G1 X145.508 Y71.408 E29.5972
G1 F1754.9 X145.375 Y71.157 E29.60568
G1 F1740.3 X145.331 Y70.952 E29.61199
G0 F9000 X146.155 Y71.515
G1 F1084.3 X147.524 Y71.516 E29.67812
G0 F9000 X145.807 Y71.279
G0 X145.813 Y63.814
G0 X145.971 Y63.146
G0 X146.198 Y62.781
G0 X150.653 Y62.787
G0 X151.129 Y71.276
G1 F1759.8 X151.129 Y63.19 E29.91882
G1 F1794.9 X151.177 Y62.925 E29.92668
G1 F1842.1 X151.273 Y62.722 E29.93306
G1 F1847.5 X151.667 Y62.46 E29.94648
G1 X150.506 Y62.46 E29.9794
G1 X150.985 Y62.722 E29.99488
G1 F1842.1 X151.081 Y62.925 E30.00126
G1 F1794.9 X151.129 Y63.19 E30.00912
G0 F9000 X151.205 Y62.387
G0 X155.972 Y62.387
G0 X155.94 Y62.576
G1 F1357.8 X156.048 Y63.19 E30.03318
G1 F1769.7 X156.048 Y67.13 E30.1498
G1 F1657.9 X156.071 Y68.064 E30.17932
G1 F1381.6 X156.123 Y68.786 E30.20677
G0 F9000 X155.939 Y71.137
G0 X156.021 Y71.141
G1 F1800 X156.133 Y70.913 E30.21416
G1 X156.516 Y70.654 E30.22762
G1 X156.697 Y70.613 E30.23302
G1 X157.071 Y70.668 E30.24402
G1 X156.755 Y70.265 E30.25892
G1 X156.441 Y69.612 E30.28001
G1 F1619.5 X156.128 Y68.763 E30.30928
G1 F1438.4 X156.093 Y68.919 E30.3151
G1 F1582.9 X156.044 Y69.569 E30.33667
G1 F1800 X156.021 Y71.141 E30.38242
G1 F1800 E29.58242
G0 F9000 X155.939 Y71.137
G0 X155.972 Y62.387
G0 X145.972 Y62.381
G0 X145.605 Y62.978
G0 X145.434 Y63.694
G0 X145.335 Y71.987
G0 X146.099 Y71.987
;TYPE:WALL-OUTER
G1 F1800 E30.38242
G1 X146.192 Y71.955 E30.38529
G1 X147.963 Y71.955 E30.43683
G1 X147.963 Y71.077 E30.46238
G1 X146.192 Y71.076 E30.51392
G1 X146.05 Y70.997 E30.51865
G1 X146.01 Y70.894 E30.52186
G1 X146.01 Y64.204 E30.71655
G1 X146.029 Y63.819 E30.72777
G1 X146.073 Y63.531 E30.73625
G1 X146.18 Y63.21 E30.7461
G1 X146.293 Y63.043 E30.75196
G1 X146.397 Y62.992 E30.75533
G1 X150.25 Y62.99 E30.86746
G1 X150.419 Y63.082 E30.87306
G1 X150.45 Y63.19 E30.87633
G1 X150.45 Y71.955 E31.13141
G1 X151.808 Y71.955 E31.17093
G1 X151.808 Y63.19 E31.42601
G1 X151.839 Y63.082 E31.42928
G1 X151.973 Y62.992 E31.43398
G1 X155.169 Y62.99 E31.52699
G1 X155.326 Y63.065 E31.53205
G1 X155.37 Y63.19 E31.53591
G1 X155.369 Y69.737 E31.72644
G1 X155.355 Y70.87 E31.75941
G1 X155.318 Y71.955 E31.79101
G1 X156.578 Y71.955 E31.82768
G1 X156.602 Y71.443 E31.84259
G1 X156.646 Y71.352 E31.84553
G1 X156.734 Y71.293 E31.84862
G1 X156.879 Y71.299 E31.85284
G1 X158.572 Y72.032 E31.90653
G1 X158.947 Y72.118 E31.91773
G1 X159.466 Y72.154 E31.93287
G1 X159.91 Y72.095 E31.9459
G1 X159.91 Y70.887 E31.98106
G1 X159.609 Y70.929 E31.9899
G1 X159.159 Y70.938 E32.003
G1 X158.612 Y70.875 E32.01902
G1 X158.127 Y70.687 E32.03416
G1 X157.666 Y70.334 E32.05106
G1 X157.322 Y69.886 E32.0675
G1 X157.064 Y69.351 E32.08478
G1 X156.869 Y68.678 E32.10517
G1 X156.765 Y67.963 E32.1262
G1 X156.726 Y67.09 E32.15163
G1 X156.726 Y61.79 E32.30587
G1 X147.97 Y61.788 E32.56069
G1 X147.421 Y61.69 E32.57692
G1 X147.024 Y61.65 E32.58853
G1 X146.578 Y61.635 E32.60151
G1 X145.678 Y61.78 E32.62804
G1 X142.871 Y61.788 E32.70973
G1 X142.488 Y61.729 E32.72101
G1 X142.177 Y61.702 E32.7301
G1 X141.816 Y61.694 E32.7406
G1 X141.404 Y61.724 E32.75263
G1 X141.112 Y61.79 E32.76134
G1 X137.49 Y61.79 E32.86674
G1 X137.255 Y61.718 E32.8739
G1 X136.708 Y61.628 E32.89003
G1 X136.115 Y61.596 E32.90731
G1 X135.386 Y61.647 E32.92858
G1 X134.808 Y61.788 E32.94589
G1 X102.693 Y61.788 E33.8805
G1 X102.31 Y61.729 E33.89178
G1 X101.998 Y61.702 E33.90089
G1 X101.637 Y61.694 E33.9114
G1 X101.225 Y61.724 E33.92342
G1 X100.933 Y61.79 E33.93213
G1 X97.312 Y61.79 E34.03751
G1 X97.077 Y61.718 E34.04467
G1 X96.53 Y61.628 E34.0608
G1 X95.936 Y61.596 E34.07811
G1 X95.208 Y61.647 E34.09935
G1 X94.63 Y61.788 E34.11666
G1 X42.727 Y61.79 E35.62714
G1 X42.728 Y75.147 E36.01585
G1 X52.765 Y75.147 E36.30795
G1 X52.765 Y74.025 E36.3406
G1 X44.392 Y74.025 E36.58427
G1 X44.194 Y73.915 E36.59086
G1 X44.192 Y69.411 E36.72194
G1 X44.247 Y69.272 E36.72629
G1 X44.374 Y69.211 E36.73039
G1 X52.179 Y69.211 E36.95753
G1 X52.179 Y68.108 E36.98963
G1 X44.374 Y68.108 E37.21677
G1 X44.247 Y68.047 E37.22087
G1 X44.194 Y67.943 E37.22426
G1 X44.192 Y63.19 E37.36259
G1 X44.227 Y63.076 E37.36606
G1 X44.357 Y62.992 E37.37056
G1 X55.3 Y62.99 E37.68902
G1 X55.469 Y63.081 E37.69461
G1 X55.5 Y63.19 E37.69791
G1 X55.496 Y70.734 E37.91745
G1 X55.46 Y71.955 E37.953
G1 X56.727 Y71.954 E37.98987
G1 X56.834 Y71.18 E38.01261
G1 X56.923 Y71.099 E38.01611
G1 X57.059 Y71.065 E38.02019
G1 X58.777 Y71.919 E38.07603
G1 X59.174 Y72.047 E38.08816
G1 X59.613 Y72.123 E38.10113
G1 F1805.2 X60.094 Y72.15 E38.11511
G1 X60.641 Y72.121 E38.13101
G1 F1800 X61.123 Y72.036 E38.14525
G1 X61.517 Y71.902 E38.15736
G1 X61.878 Y71.706 E38.16932
G1 X63.092 Y70.679 E38.21559
G1 F1540.3 X63.334 Y70.638 E38.22394
G1 F1354.8 X63.746 Y71.046 E38.24636
G1 F1551.7 X64.078 Y71.458 E38.26422
G1 F1800 X64.423 Y71.711 E38.27667
G1 X64.797 Y71.899 E38.28885
G1 X65.233 Y72.041 E38.3022
G1 X65.672 Y72.118 E38.31517
G1 X66.195 Y72.149 E38.33041
G1 X66.915 Y72.096 E38.35142
G1 X67.51 Y71.942 E38.36931
G1 X67.993 Y71.696 E38.38508
G1 X68.374 Y71.349 E38.40008
G1 X68.66 Y70.896 E38.41567
G1 X68.876 Y70.282 E38.43461
G1 X69.054 Y69.268 E38.46457
G1 X69.054 Y63.146 E38.64274
G1 X69.219 Y62.992 E38.6493
G1 X71.521 Y62.99 E38.7163
G1 X71.69 Y63.082 E38.7219
G1 X71.721 Y63.19 E38.72517
G1 X71.721 Y75.881 E39.0945
G1 X73.079 Y75.881 E39.13402
G1 X73.079 Y63.19 E39.50335
G1 X73.11 Y63.082 E39.50662
G1 X73.244 Y62.992 E39.51132
G1 X75.909 Y62.99 E39.58888
G1 X76.078 Y63.082 E39.59448
G1 X76.109 Y63.19 E39.59775
G1 X76.11 Y69.692 E39.78697
G1 X76.095 Y70.87 E39.82125
G1 X76.058 Y71.955 E39.85284
G1 X77.318 Y71.955 E39.88951
G1 X77.342 Y71.443 E39.90443
G1 X77.386 Y71.352 E39.90737
G1 X77.474 Y71.293 E39.91045
G1 X77.619 Y71.299 E39.91468
G1 X79.312 Y72.032 E39.96837
G1 X79.687 Y72.118 E39.97956
G1 X80.206 Y72.154 E39.9947
G1 X80.65 Y72.095 E40.00774
G1 X80.65 Y70.887 E40.04289
G1 X80.349 Y70.929 E40.05174
G1 X79.9 Y70.938 E40.06481
G1 X79.352 Y70.875 E40.08086
G1 X78.867 Y70.687 E40.096
G1 X78.42 Y70.352 E40.11225
G1 X78.062 Y69.884 E40.1294
G1 X77.805 Y69.351 E40.14662
G1 X77.61 Y68.678 E40.16701
G1 X77.506 Y67.963 E40.18804
G1 X77.467 Y67.09 E40.21347
G1 X77.467 Y63.19 E40.32697
G1 X77.498 Y63.082 E40.33024
G1 X77.632 Y62.992 E40.33494
G1 X82.413 Y62.99 E40.47407
G1 X82.582 Y63.082 E40.47967
G1 X82.613 Y63.19 E40.48294
G1 X82.613 Y75.881 E40.85227
G1 X83.971 Y75.881 E40.89179
G1 X83.971 Y71.212 E41.02767
G1 X84.067 Y71.04 E41.0334
G1 X84.224 Y71.019 E41.03801
G1 X85.992 Y71.895 E41.09543
G1 X86.421 Y72.031 E41.10853
G1 X86.944 Y72.121 E41.12398
G1 X87.497 Y72.15 E41.14009
G1 X88.276 Y72.097 E41.16281
G1 X88.926 Y71.946 E41.18223
G1 X89.465 Y71.696 E41.19953
G1 X89.888 Y71.357 E41.2153
G1 X90.213 Y70.899 E41.23164
G1 X90.452 Y70.296 E41.25052
G1 X90.65 Y69.279 E41.28067
G1 X90.65 Y63.19 E41.45787
G1 X90.68 Y63.083 E41.46111
G1 X90.815 Y62.992 E41.46585
G1 X92.956 Y62.99 E41.52815
G1 X93.137 Y63.103 E41.53436
G1 X93.153 Y63.229 E41.53806
G1 X92.968 Y63.642 E41.55123
G1 X92.989 Y63.875 E41.55804
G1 X92.94 Y64.546 E41.57762
G1 X92.989 Y65.094 E41.59363
G1 X92.961 Y65.502 E41.60553
G1 X93.508 Y66.45 E41.63738
G1 X93.946 Y66.903 E41.65572
G1 X95.123 Y67.637 E41.69609
G1 X97.316 Y67.795 E41.76007
G1 X99.675 Y67.835 E41.82873
G1 X99.829 Y67.911 E41.83373
G1 X99.872 Y68.035 E41.83755
G1 X99.871 Y68.633 E41.85495
G1 X99.839 Y69.218 E41.872
G1 F1805.2 X99.726 Y69.78 E41.88864
G1 X99.527 Y70.25 E41.90345
G1 F1800 X99.267 Y70.599 E41.91612
G1 X98.896 Y70.881 E41.92968
G1 X98.494 Y71.06 E41.94248
G1 X97.995 Y71.175 E41.95739
G1 X97.425 Y71.212 E41.97401
G1 X96.831 Y71.187 E41.99131
G1 X96.322 Y71.104 E42.00632
G1 X95.917 Y70.973 E42.01871
G1 X95.549 Y70.757 E42.03112
G1 X95.303 Y70.525 E42.04097
G1 X95.086 Y70.197 E42.05241
G1 X94.936 Y69.817 E42.0643
G1 X94.88 Y69.547 E42.07232
G1 X93.48 Y69.675 E42.11324
G1 X93.815 Y70.642 E42.14302
G1 X94.606 Y71.469 E42.17632
G1 X95.811 Y71.976 E42.21437
G1 X97.445 Y72.149 E42.26219
G1 X98.362 Y72.092 E42.28892
G1 X99.13 Y71.93 E42.31177
G1 X99.776 Y71.663 E42.33211
G1 X100.306 Y71.287 E42.35102
G1 X100.713 Y70.818 E42.36909
G1 F1805.2 X101.013 Y70.237 E42.38807
G1 X101.186 Y69.586 E42.40761
G1 F1800 X101.248 Y68.776 E42.43126
G1 X101.248 Y64.244 E42.56314
G1 X101.262 Y63.85 E42.57462
G1 X101.305 Y63.511 E42.58456
G1 X101.413 Y63.063 E42.59797
G1 X101.574 Y62.99 E42.60312
G1 X104.137 Y62.99 E42.67771
G1 X104.306 Y63.082 E42.68331
G1 X104.337 Y63.19 E42.68658
G1 X104.334 Y70.733 E42.90609
G1 X104.298 Y71.955 E42.94167
G1 X105.566 Y71.954 E42.97857
G1 X105.674 Y71.155 E43.00204
G1 X105.779 Y71.065 E43.00606
G1 X105.908 Y71.05 E43.00984
G1 X107.734 Y71.903 E43.06849
G1 X108.185 Y72.041 E43.08222
G1 X108.676 Y72.12 E43.09669
G1 X109.213 Y72.149 E43.11234
G1 X110.005 Y72.098 E43.13544
G1 X110.67 Y71.942 E43.15531
G1 X111.198 Y71.694 E43.17229
G1 X111.617 Y71.354 E43.18799
G1 X111.943 Y70.887 E43.20457
G1 X112.18 Y70.277 E43.22361
G1 X112.322 Y69.535 E43.2456
G1 X112.374 Y68.615 E43.27242
G1 X112.374 Y63.19 E43.43029
G1 X112.404 Y63.083 E43.43353
G1 X112.539 Y62.992 E43.43827
G1 X120.68 Y62.99 E43.67518
G1 X120.881 Y63.106 E43.68194
G1 X120.88 Y75.148 E44.03238
G1 X126.454 Y75.148 E44.1946
G1 X127.546 Y75.08 E44.22644
G1 X128.46 Y74.888 E44.25362
G1 X129.257 Y74.562 E44.27868
G1 X129.922 Y74.111 E44.30206
G1 X130.449 Y73.546 E44.32455
G1 X130.822 Y72.876 E44.34686
G1 X131.047 Y72.103 E44.37029
G1 X131.124 Y71.208 E44.39643
G1 X131.009 Y69.878 E44.43528
G1 X130.441 Y68.844 E44.46962
G1 X129.918 Y68.257 E44.4925
G1 X129.252 Y67.773 E44.51645
G1 X128.484 Y67.432 E44.54091
G1 X127.594 Y67.223 E44.56751
G1 X126.579 Y67.152 E44.59712
G1 X122.527 Y67.151 E44.71505
G1 X122.398 Y67.088 E44.71922
G1 X122.347 Y66.986 E44.72254
G1 X122.345 Y63.109 E44.83537
G1 X122.51 Y62.992 E44.84126
G1 X133.126 Y62.99 E45.1502
G1 X133.307 Y63.103 E45.15641
G1 F1805.2 X133.323 Y63.23 E45.16013
G1 X133.166 Y63.868 E45.17919
G1 F1800 X133.118 Y64.546 E45.19897
G1 X133.182 Y65.268 E45.22007
G1 X133.37 Y65.904 E45.23937
G1 X133.687 Y66.45 E45.25774
G1 X134.124 Y66.903 E45.27606
G1 X135.301 Y67.636 E45.31641
G1 X137.495 Y67.795 E45.38043
G1 X139.854 Y67.835 E45.44909
G1 X140.008 Y67.911 E45.45409
G1 X140.051 Y68.035 E45.45791
G1 X140.05 Y68.633 E45.47531
G1 X140.013 Y69.242 E45.49307
G1 X139.908 Y69.768 E45.50867
G1 X139.704 Y70.253 E45.52399
G1 X139.447 Y70.598 E45.53651
G1 X139.072 Y70.883 E45.55021
G1 X138.677 Y71.059 E45.5628
G1 X138.173 Y71.175 E45.57785
G1 X137.603 Y71.212 E45.59447
G1 X137.011 Y71.187 E45.61172
G1 X136.501 Y71.104 E45.62675
G1 X136.099 Y70.974 E45.63905
G1 X135.727 Y70.758 E45.65157
G1 X135.48 Y70.523 E45.66149
G1 X135.268 Y70.203 E45.67266
G1 X135.113 Y69.813 E45.68487
G1 X135.058 Y69.547 E45.69278
G1 X133.658 Y69.675 E45.73369
G1 X133.993 Y70.642 E45.76347
G1 X134.784 Y71.469 E45.79678
G1 X135.989 Y71.976 E45.83482
G1 X137.623 Y72.149 E45.88264
G1 X138.54 Y72.092 E45.90938
G1 X139.309 Y71.93 E45.93225
G1 X139.952 Y71.664 E45.9525
G1 X140.486 Y71.285 E45.97156
G1 X141.305 Y70.341 E46.00793
G1 X141.427 Y68.783 E46.05341
G1 X141.427 Y64.243 E46.18553
G1 X141.438 Y63.869 E46.19642
G1 X141.483 Y63.511 E46.20692
G1 X141.591 Y63.063 E46.22033
G1 X141.752 Y62.99 E46.22547
G1 X144.452 Y62.99 E46.30405
G1 X144.649 Y63.11 E46.31076
G1 X144.652 Y70.894 E46.53729
G1 X144.575 Y71.035 E46.54197
G1 X144.474 Y71.076 E46.54514
G1 X143.433 Y71.077 E46.57543
G1 X143.433 Y71.955 E46.60099
G1 X144.522 Y71.955 E46.63268
G1 X144.627 Y71.984 E46.63585
G1 X144.718 Y72.112 E46.64042
G1 X145.2 Y74.318 E46.70613
G1 X146.01 Y74.318 E46.7297
G1 X146.011 Y74.103 E46.73596
G0 F1620 X146.014 Y72.112
G0 X146.099 Y71.987
G1 F1800 E45.93596
G0 F9000 X145.335 Y71.987
G0 X145.255 Y62.387
G0 X141.129 Y62.384
G0 X140.858 Y63.672
G0 X140.726 Y66.972
G0 X139.959 Y66.972
G1 F1800 E46.73596
G1 X139.854 Y67.003 E46.73915
G1 X137.947 Y66.965 E46.79465
G1 X137.313 Y66.942 E46.81312
G1 X136.807 Y66.892 E46.82791
G1 X136.348 Y66.808 E46.84149
G1 X135.964 Y66.694 E46.85315
G1 X135.667 Y66.563 E46.8626
G1 X135.354 Y66.367 E46.87335
G1 X135.1 Y66.145 E46.88316
G1 X134.889 Y65.884 E46.89293
G1 X134.741 Y65.627 E46.90156
G1 X134.615 Y65.279 E46.91233
G1 X134.544 Y64.903 E46.92347
G1 X134.523 Y64.498 E46.93527
G1 X134.552 Y64.073 E46.94767
G1 F1805.2 X134.656 Y63.669 E46.95977
G1 X134.827 Y63.316 E46.97115
G1 F1800 X135.023 Y63.066 E46.9804
G1 X135.133 Y62.995 E46.98421
G1 X138.284 Y62.99 E47.07591
G1 X138.396 Y63.023 E47.07931
G1 X138.718 Y63.241 E47.09062
G1 X139.056 Y63.544 E47.10383
G1 X139.345 Y63.885 E47.11684
G1 X139.587 Y64.253 E47.12966
G1 X139.785 Y64.653 E47.14265
G1 X139.939 Y65.098 E47.15635
G1 X140.022 Y65.517 E47.16878
G1 X140.038 Y65.744 E47.17541
G0 F1620 X140.049 Y65.907
G0 X140.048 Y66.838
G0 X139.959 Y66.972
G1 F1800 E46.37541
G0 F9000 X140.726 Y66.972
G0 X140.63 Y65.423
G0 X140.357 Y64.429
G0 X139.83 Y63.504
G0 X139.085 Y62.747
G0 X138.531 Y62.377
G0 X121.742 Y62.387
G0 X121.67 Y73.94
G0 X122.347 Y73.94
G1 F1800 E47.17541
G1 X122.345 Y68.425 E47.3359
G1 X122.398 Y68.288 E47.34018
G1 X122.527 Y68.225 E47.34436
G1 X126.353 Y68.226 E47.4557
G1 X127.755 Y68.404 E47.49683
G1 X128.808 Y68.963 E47.53152
G1 X129.441 Y69.9 E47.56443
G1 X129.649 Y71.209 E47.603
G1 X129.438 Y72.435 E47.63921
G1 X128.784 Y73.343 E47.67177
G1 X127.712 Y73.88 E47.70666
G1 X126.268 Y74.053 E47.74899
G1 X124.459 Y74.054 E47.80163
G0 F1620 X122.545 Y74.054
G0 X122.347 Y73.94
G1 F1800 E47.00163
G0 F9000 X121.67 Y73.94
G0 X121.483 Y62.387
G0 X111.771 Y62.387
G0 X111.682 Y63.083
G0 X110.977 Y63.083
G1 F1800 E47.80163
G1 X111.008 Y63.19 E47.80488
G1 X111.007 Y68.289 E47.95327
G1 X110.995 Y68.79 E47.96785
G1 X110.955 Y69.245 E47.98114
G1 X110.891 Y69.623 E47.9923
G1 X110.789 Y69.986 E48.00327
G1 X110.669 Y70.259 E48.01195
G1 X110.502 Y70.518 E48.02092
G1 X110.275 Y70.755 E48.03047
G1 X110.066 Y70.902 E48.03791
G1 X109.763 Y71.039 E48.04758
G1 X109.429 Y71.126 E48.05763
G1 X109.063 Y71.177 E48.06838
G1 X108.622 Y71.192 E48.08122
G1 X107.97 Y71.131 E48.10028
G1 X107.406 Y70.956 E48.11747
G1 X106.927 Y70.679 E48.13357
G1 X106.489 Y70.27 E48.15101
G1 X106.133 Y69.747 E48.16942
G1 X105.894 Y69.167 E48.18768
G1 X105.742 Y68.469 E48.20847
G1 X105.695 Y67.722 E48.23025
G1 X105.695 Y63.19 E48.36214
G1 X105.726 Y63.082 E48.36541
G1 X105.86 Y62.992 E48.37011
G1 X108.858 Y62.99 E48.45735
G0 F1620 X110.807 Y62.99
G0 X110.977 Y63.083
G1 F1800 E47.65735
G0 F9000 X111.682 Y63.083
G0 X111.61 Y62.387
G0 X100.951 Y62.384
G0 X100.68 Y63.671
G0 X100.547 Y66.972
G0 X99.78 Y66.972
G1 F1800 E48.45735
G1 X99.675 Y67.003 E48.46054
G1 X97.765 Y66.965 E48.51613
G1 X97.135 Y66.942 E48.53448
G1 X96.628 Y66.892 E48.54931
G1 X96.17 Y66.809 E48.56285
G1 X95.784 Y66.693 E48.57458
G1 X95.487 Y66.562 E48.58403
G1 X95.196 Y66.382 E48.59399
G1 X94.923 Y66.147 E48.60447
G1 X94.712 Y65.887 E48.61421
G1 F1805.2 X94.548 Y65.593 E48.62398
G1 X94.432 Y65.258 E48.63427
G1 F1800 X94.366 Y64.904 E48.64475
G1 X94.345 Y64.498 E48.65658
G1 X94.378 Y64.061 E48.66934
G1 X94.48 Y63.664 E48.68126
G1 X94.625 Y63.354 E48.69122
G1 X94.845 Y63.066 E48.70177
G1 X94.955 Y62.995 E48.70558
G1 X98.105 Y62.99 E48.79725
G1 X98.217 Y63.023 E48.80065
G1 X98.517 Y63.224 E48.81116
G1 X98.878 Y63.544 E48.8252
G1 X99.167 Y63.885 E48.83821
G1 X99.418 Y64.269 E48.85156
G1 X99.617 Y64.676 E48.86474
G1 X99.761 Y65.098 E48.87772
G1 X99.83 Y65.438 E48.88781
G0 F1620 X99.841 Y65.493
G0 X99.87 Y65.907
G0 X99.869 Y66.838
G0 X99.78 Y66.972
G1 F1800 E48.08781
G0 F9000 X100.547 Y66.972
G0 X100.453 Y65.424
G0 X100.179 Y64.429
G0 X99.652 Y63.504
G0 X98.906 Y62.747
G0 X98.354 Y62.377
G0 X90.047 Y62.387
G0 X89.957 Y63.083
G0 X89.252 Y63.083
G1 F1800 E48.88781
G1 X89.282 Y63.19 E48.89105
G1 X89.282 Y68.29 E49.03947
G1 X89.27 Y68.822 E49.05495
G1 X89.229 Y69.298 E49.06886
G1 X89.166 Y69.67 E49.07984
G1 X89.063 Y70.022 E49.09051
G1 X88.869 Y70.427 E49.10358
G1 X88.536 Y70.758 E49.11724
G1 X88.282 Y70.923 E49.12606
G1 X88.02 Y71.036 E49.13436
G1 X87.681 Y71.127 E49.14458
G1 X87.336 Y71.176 E49.15472
G1 X86.887 Y71.192 E49.16779
G1 X86.29 Y71.138 E49.18524
G1 X85.697 Y70.957 E49.20328
G1 X85.185 Y70.658 E49.22054
G1 X84.759 Y70.256 E49.23758
G1 X84.406 Y69.747 E49.25561
G1 X84.16 Y69.17 E49.27386
G1 X84.018 Y68.543 E49.29257
G1 X83.971 Y67.831 E49.31334
G1 X83.971 Y63.19 E49.4484
G1 X84.002 Y63.082 E49.45167
G1 X84.136 Y62.992 E49.45637
G1 X87.133 Y62.99 E49.54358
G0 F1620 X89.082 Y62.99
G0 X89.252 Y63.083
G1 F1800 E48.74358
G0 F9000 X89.957 Y63.083
G0 X89.885 Y62.387
G0 X62.348 Y62.387
G0 X62.276 Y63.146
G0 X62.951 Y63.146
G1 F1800 E49.54358
G1 X63.116 Y62.992 E49.55015
G1 X67.516 Y62.99 E49.6782
G1 X67.684 Y63.081 E49.68376
G1 X67.716 Y63.19 E49.68707
G1 X67.716 Y68.336 E49.83683
G1 X67.689 Y69.026 E49.85692
G1 X67.609 Y69.617 E49.87428
G1 X67.47 Y70.12 E49.88946
G1 X67.265 Y70.516 E49.90244
G1 X66.953 Y70.833 E49.91539
G1 X66.589 Y71.032 E49.92746
G1 X66.109 Y71.155 E49.94188
G1 X65.565 Y71.194 E49.95775
G1 X64.975 Y71.131 E49.97502
G1 X64.494 Y70.971 E49.98977
G1 F1551.7 X63.993 Y70.722 E50.00866
G1 F1448.3 X63.618 Y70.336 E50.02812
G1 F1662.3 X63.321 Y69.73 E50.04939
G1 F1800 X63.115 Y69.144 E50.06747
G1 X62.993 Y68.479 E50.08714
G1 X62.951 Y67.702 E50.10979
G1 X62.951 Y64.094 E50.21479
G0 F1620 X62.951 Y63.146
G1 F1800 E49.41479
G0 F9000 X62.276 Y63.146
G0 X62.216 Y62.387
G0 X56.245 Y62.387
G0 X56.173 Y63.081
G0 X56.879 Y63.081
G1 F1800 E50.21479
G1 X57.013 Y62.992 E50.21947
G1 X61.413 Y62.99 E50.34752
G1 X61.581 Y63.081 E50.35308
G1 X61.613 Y63.19 E50.35638
G1 X61.613 Y68.29 E50.5048
G1 X61.585 Y69.026 E50.52624
G1 X61.507 Y69.61 E50.54338
G1 X61.355 Y70.146 E50.5596
G1 X61.155 Y70.53 E50.5722
G1 X60.867 Y70.819 E50.58407
G1 X60.451 Y71.043 E50.59782
G1 F1805.2 X60.02 Y71.154 E50.61074
G1 X59.462 Y71.194 E50.62697
G1 F1800 X58.886 Y71.129 E50.64384
G1 X58.381 Y70.957 E50.65936
G1 X57.914 Y70.65 E50.67563
G1 X57.529 Y70.237 E50.69206
G1 X57.226 Y69.731 E50.70922
G1 X57.021 Y69.167 E50.72669
G1 X56.891 Y68.483 E50.74695
G1 X56.848 Y67.722 E50.76913
G1 X56.848 Y64.487 E50.86328
G0 F1620 X56.848 Y63.147
G0 X56.879 Y63.081
G0 F9000 X56.173 Y63.081
G0 X56.245 Y62.387
G0 X76.712 Y62.387
G0 X76.712 Y66.793
G0 X77.184 Y70.322
;TYPE:SKIN
G1 F1472 X77.157 Y70.367 E50.86514
G1 X77.105 Y70.367 E50.86699
G1 X77.078 Y70.322 E50.86886
G1 X77.105 Y70.277 E50.87073
G1 X77.125 Y70.277 E50.87144
G0 F1620 X77.157 Y70.277
G1 F1800 E50.07144
G0 F9000 X76.891 Y68.002
G0 X76.864 Y62.387
G0 X98.354 Y62.377
G0 X100.245 Y63.635
G1 F1800 E50.87144
G1 F1412.6 X99.961 Y63.215 E50.89024
G1 X99.633 Y62.828 E50.90906
G1 X100.402 Y62.828 E50.93757
G1 X100.288 Y63.299 E50.95554
G1 X100.287 Y63.306 E50.95581
G0 F1620 X100.245 Y63.635
G1 F1800 E50.15581
G0 F9000 X100.951 Y62.384
G0 X138.531 Y62.377
G0 X140.424 Y63.637
G1 F1800 E50.95581
G1 F1415.7 X140.123 Y63.194 E50.97562
G1 X139.808 Y62.828 E50.99349
G1 X140.579 Y62.828 E51.02202
G1 X140.467 Y63.298 E51.0399
G1 X140.465 Y63.312 E51.04042
G0 F1620 X140.424 Y63.637
G0 F9000 X141.129 Y62.384
G0 X155.972 Y62.387
G0 X155.972 Y66.775
G0 X156.443 Y70.324
G1 F1485.8 X156.416 Y70.369 E51.04227
G1 X156.364 Y70.369 E51.0441
G1 X156.337 Y70.324 E51.04595
G1 X156.364 Y70.279 E51.0478
G1 X156.384 Y70.279 E51.04851
G0 F1620 X156.416 Y70.279
G0 F9000 X156.402 Y70.105
M104 S237
G1 F1800 E50.24851
;MESH:NONMESH
G0 F300 X156.402 Y70.105 Z0.4
G0 F9000 X155.984 Y69.699
G0 X155.972 Y62.387
G0 X43.589 Y62.387
G0 X43.549 Y62.612
;TIME_ELAPSED:82.915124
;LAYER:1
M140 S90
;TYPE:WALL-INNER
;MESH:emirhanpatir.stl
G1 F1800 E51.04851
G1 F1263.5 X43.46 Y63.19 E51.07558
G1 F1483.1 X43.466 Y68.07 E51.26807
G1 F1800 E50.46807
G0 F10000 X43.989 Y62.787
G0 X55.703 Y62.787
G0 X56.81 Y69.209
G0 X57.04 Y69.84
G0 X57.371 Y70.386
G0 X57.792 Y70.831
G0 X58.292 Y71.154
G0 X58.859 Y71.347
G0 X59.473 Y71.408
G0 X60.051 Y71.368
G0 X60.557 Y71.235
G0 X63.134 Y69.843
G0 X63.457 Y70.39
G0 X63.876 Y70.834
G0 X64.378 Y71.157
G0 X64.952 Y71.348
G0 X65.577 Y71.408
G0 X66.154 Y71.368
G0 X66.661 Y71.235
G0 X67.097 Y70.998
G0 X68.84 Y69.258
G0 X68.851 Y62.787
G0 X82.816 Y62.787
G0 X83.592 Y69.093
G0 X85.038 Y71.006
G1 F1800 E51.26807
G1 F1772.2 X84.487 Y70.436 E51.29423
G1 F2000 X84.129 Y69.919 E51.31263
G1 X83.854 Y69.286 E51.33281
G1 X83.698 Y68.599 E51.35342
G1 X83.646 Y67.866 E51.37491
G1 X83.646 Y63.19 E51.51167
G1 X83.727 Y62.908 E51.52026
G1 F1737 X84.071 Y62.62 E51.53537
G1 F1545.3 X89.082 Y62.615 E51.72506
G1 F1750 X89.527 Y62.91 E51.74291
G1 F2000 X89.607 Y63.19 E51.75142
G1 X89.607 Y68.297 E51.90079
G1 X89.595 Y68.818 E51.91604
G1 X89.555 Y69.309 E51.93044
G1 X89.486 Y69.732 E51.94298
G1 X89.367 Y70.143 E51.95549
G1 X89.134 Y70.616 E51.97092
G1 F1682.7 X88.961 Y70.943 E51.98378
G1 F1511.9 X88.523 Y71.216 E52.00375
G1 F1662.7 X88.131 Y71.367 E52.01852
G1 F1856.8 X87.733 Y71.451 E52.03134
G1 F1609.2 X87.411 Y71.664 E52.04537
G1 X87.774 Y71.803 E52.0595
G1 F1856.8 X88.225 Y71.751 E52.07381
G1 F1631.7 X88.802 Y71.585 E52.09533
G1 F1434.4 X89.249 Y71.348 E52.11596
G1 F1354 X89.335 Y71.274 E52.12086
G1 F1580.1 X89.654 Y71.123 E52.13393
G1 F1955.3 X89.926 Y70.743 E52.14791
G1 F2000 X90.139 Y70.204 E52.16486
G1 X90.325 Y69.248 E52.19335
G1 X90.325 Y63.19 E52.37053
G1 X90.405 Y62.91 E52.37905
G1 F1737 X90.75 Y62.62 E52.39423
G1 F1545.3 X92.956 Y62.615 E52.47774
G1 F1750 X93.43 Y62.962 E52.49737
G1 F2000 X93.475 Y63.101 E52.50165
G1 X93.469 Y63.342 E52.5087
G1 X93.3 Y63.699 E52.52025
G1 X93.313 Y63.877 E52.52547
G1 X93.267 Y64.543 E52.545
G1 X93.316 Y65.089 E52.56103
G1 X93.292 Y65.425 E52.57088
G1 X93.455 Y65.709 E52.58046
G1 F1616.6 X93.705 Y65.971 E52.59356
G1 F1359.2 X93.835 Y66.204 E52.60504
G1 F1422.8 X94.191 Y66.601 E52.62697
G1 F1594.5 X94.703 Y66.959 E52.64989
G1 F1719.9 X95.236 Y67.289 E52.67121
G1 F1715.7 X95.661 Y67.319 E52.68574
G1 F1372.5 X96.041 Y67.246 E52.70223
G1 X95.711 Y67.042 E52.71876
G1 F1724.1 X95.343 Y66.883 E52.73236
G1 X94.944 Y66.633 E52.74834
G1 F1643.2 X94.635 Y66.382 E52.76251
G1 F1498.9 X94.369 Y66.082 E52.77816
G1 F1391.7 X94.17 Y65.748 E52.7945
G1 F1616.6 X94.133 Y65.397 E52.80727
G1 F2000 X94.046 Y64.963 E52.82022
G1 X94.02 Y64.529 E52.83293
G1 X94.056 Y64.004 E52.84832
G1 X94.162 Y63.578 E52.86116
G1 X94.359 Y63.156 E52.87478
G1 F1808.8 X94.804 Y62.609 E52.89759
G1 F1473.7 X95.312 Y62.578 E52.91779
G1 F1308.4 X95.942 Y62.566 E52.94596
G1 F1346.2 X96.922 Y62.592 E52.98856
G1 F1483.1 X97.344 Y62.615 E53.00523
G1 F1555.6 X98.105 Y62.615 E53.03385
G1 F1750 X98.398 Y62.753 E53.04468
G1 F2000 X98.698 Y62.954 E53.05524
G1 X99.125 Y63.333 E53.07194
G1 X99.401 Y63.655 E53.08434
G1 X99.711 Y64.125 E53.10081
G1 X99.924 Y64.57 E53.11524
G1 X100.08 Y65.033 E53.12953
G1 X100.168 Y65.496 E53.14331
G1 X100.197 Y65.923 E53.15583
G1 X100.197 Y66.878 E53.18376
G1 F1772.2 X100.062 Y67.178 E53.19462
G1 F1440.3 X99.681 Y67.419 E53.21293
G1 X100.068 Y67.664 E53.23153
G1 F1772.2 X100.197 Y68.035 E53.2445
G1 F2000 X100.196 Y68.651 E53.26251
G1 X100.165 Y69.242 E53.27982
G1 X100.054 Y69.809 E53.29672
G1 F1612.9 X100.036 Y70.107 E53.30755
G1 F1402.8 X99.904 Y70.408 E53.32125
G1 F1555.6 X99.54 Y70.854 E53.3429
G1 F1719.9 X99.152 Y71.129 E53.35908
G1 F1818.2 X98.898 Y71.252 E53.36816
G1 F1933.7 X98.614 Y71.361 E53.37736
G1 F2046.8 X98.261 Y71.442 E53.38771
G1 F2134.1 X97.983 Y71.488 E53.39543
G1 F2201.3 X97.444 Y71.52 E53.40978
G1 F2272.7 X96.8 Y71.483 E53.42639
G1 F2287.6 X96.228 Y71.397 E53.44118
G1 F2187.5 X95.86 Y71.3 E53.45135
G1 F2058.8 X95.357 Y71.035 E53.46751
G1 F1715.7 X95.025 Y70.774 E53.48191
G1 F1467.5 X94.699 Y70.306 E53.50464
G1 F1383.4 X94.564 Y69.987 E53.51929
G1 F1348.7 X94.038 Y70.035 E53.5422
G1 X94.173 Y70.423 E53.56001
G1 F1411.3 X94.798 Y71.152 E53.59981
G1 F1682.7 X95.265 Y71.389 E53.61802
G1 F1983 X95.838 Y71.654 E53.63664
G1 F2127.7 X96.265 Y71.718 E53.64851
G1 F2310.2 X96.809 Y71.782 E53.66238
G1 F2272.7 X97.451 Y71.839 E53.67897
G1 F2201.3 X98.001 Y71.805 E53.69361
G1 F2134.1 X98.319 Y71.775 E53.70237
G1 F2046.8 X98.713 Y71.69 E53.71389
G1 F1933.7 X99.03 Y71.605 E53.72382
G1 F1818.2 X99.348 Y71.466 E53.73498
G1 F1703.2 X99.599 Y71.343 E53.74458
G1 F1548.7 X100.044 Y70.997 E53.76587
G1 F1422.8 X100.375 Y70.59 E53.78744
G1 F1364.5 X100.506 Y70.324 E53.80015
G1 F1559 X100.719 Y70.075 E53.81245
G1 F1923.1 X100.864 Y69.532 E53.82955
G1 F2000 X100.923 Y68.75 E53.85248
G1 X100.923 Y64.232 E53.98463
G1 X100.936 Y63.856 E53.99563
G1 X100.978 Y63.494 E54.00629
G1 X101.078 Y63.066 E54.01914
G1 F1794.9 X101.321 Y62.639 E54.03516
G1 F1511.9 X101.547 Y62.594 E54.04407
G1 F1434.4 X102.242 Y62.598 E54.07241
G1 F1505.4 X102.724 Y62.615 E54.09116
G1 F1555.6 X104.137 Y62.615 E54.14429
G1 F1750 X104.581 Y62.908 E54.16207
G1 F2000 X104.662 Y63.19 E54.17065
G1 X104.659 Y70.741 E54.39151
G1 F1601.8 X104.737 Y71.122 E54.40571
G1 F1348.7 X104.722 Y71.547 E54.42415
G1 F1361.9 X105.21 Y71.547 E54.44511
G1 F1348.7 X105.258 Y71.163 E54.4619
G1 F1601.8 X105.426 Y70.957 E54.4716
G1 F2000 X105.64 Y70.77 E54.47992
G1 F1907.4 X105.994 Y70.731 E54.49084
G1 F1745.6 X106.599 Y70.973 E54.51267
G1 F1583.7 X106.735 Y71.01 E54.51788
G1 F1715.7 X106.19 Y70.416 E54.54537
G1 F2000 X105.852 Y69.909 E54.56319
G1 X105.577 Y69.251 E54.58405
G1 X105.425 Y68.544 E54.6052
G1 X105.37 Y67.756 E54.6283
G1 X105.37 Y63.19 E54.76185
G1 X105.451 Y62.908 E54.77043
G1 F1737 X105.795 Y62.62 E54.78554
G1 F1545.3 X110.807 Y62.615 E54.97527
G1 F1750 X111.252 Y62.91 E54.99312
G1 F2000 X111.333 Y63.19 E55.00164
G1 X111.332 Y68.297 E55.15101
G1 X111.321 Y68.808 E55.16596
G1 X111.281 Y69.256 E55.17912
G1 X111.211 Y69.685 E55.19183
G1 X111.093 Y70.105 E55.20459
G1 X110.965 Y70.393 E55.21381
G1 X110.838 Y70.599 E55.22089
G1 F1703.2 X110.707 Y70.93 E55.23311
G1 F1555.6 X110.277 Y71.215 E55.25251
G1 F1707.3 X109.864 Y71.371 E55.26764
G1 F1871.7 X109.474 Y71.452 E55.28009
G1 F1616.6 X109.149 Y71.664 E55.29413
G1 X109.509 Y71.803 E55.30809
G1 F1871.7 X109.954 Y71.753 E55.32209
G1 F1639.3 X110.545 Y71.581 E55.34405
G1 F1440.3 X110.975 Y71.35 E55.36387
G1 F1356.6 X111.077 Y71.262 E55.36968
G1 F1576.6 X111.391 Y71.107 E55.38267
G1 F1944.4 X111.654 Y70.733 E55.39643
G1 F2000 X111.866 Y70.187 E55.41356
G1 X111.999 Y69.495 E55.43417
G1 X112.049 Y68.596 E55.46051
G1 X112.049 Y63.19 E55.61862
G1 X112.129 Y62.91 E55.62714
G1 F1737 X112.474 Y62.62 E55.64232
G1 F1545.3 X120.68 Y62.615 E55.95296
G1 F1750 X121.138 Y62.931 E55.97156
G1 F2000 X121.206 Y63.19 E55.97939
G1 X121.205 Y74.823 E56.31963
G1 X121.678 Y74.823 E56.33347
G1 F1876.7 X122.545 Y74.8 E56.3605
G1 F1745.6 X126.45 Y74.794 E56.49136
G1 F1666.7 X127.497 Y74.715 E56.52821
G1 F1624.1 X127.982 Y74.618 E56.54602
G1 F1555.6 X128.346 Y74.517 E56.56023
G1 F1443.3 X129.067 Y74.208 E56.59202
G1 F1419.9 X129.258 Y74.085 E56.60138
G1 F1545.3 X129.657 Y73.918 E56.61776
G1 F1822.9 X130.184 Y73.353 E56.64255
G1 F2000 X130.52 Y72.75 E56.66274
G1 X130.725 Y72.042 E56.6843
G1 X130.797 Y71.208 E56.70878
G1 X130.691 Y69.974 E56.74501
G1 X130.174 Y69.033 E56.77641
G1 X129.989 Y68.825 E56.78455
G1 F1612.9 X129.694 Y68.621 E56.79756
G1 F1354 X129.642 Y68.561 E56.80099
G1 F1419.9 X129.397 Y68.354 E56.8142
G1 F1476.8 X129.057 Y68.112 E56.83073
G1 F1505.4 X128.364 Y67.79 E56.86043
G1 F1627.9 X127.909 Y67.66 E56.87743
G1 F1682.7 X127.539 Y67.583 E56.89057
G1 F1707.3 X126.551 Y67.5 E56.92454
G1 F1781.2 X122.497 Y67.494 E57.05768
G1 F1891.9 X122.297 Y67.416 E57.06432
G1 F1994.3 X122.161 Y67.31 E57.06937
G1 F2000 X122.02 Y67.028 E57.07859
G1 X122.02 Y63.091 E57.19374
G1 X122.088 Y62.931 E57.19883
G1 F1737 X122.445 Y62.62 E57.21477
G1 F1545.3 X133.126 Y62.615 E57.61911
G1 F1750 X133.601 Y62.964 E57.63881
G1 F2000 X133.645 Y63.1 E57.64299
G1 F2005.7 X133.641 Y63.294 E57.64865
G1 X133.489 Y63.918 E57.66738
G1 F2000 X133.445 Y64.545 E57.68576
G1 X133.501 Y65.21 E57.70528
G1 X133.619 Y65.604 E57.71731
G1 F1813.5 X133.722 Y65.793 E57.72426
G1 F1486.2 X133.869 Y65.947 E57.73264
G1 F1356.6 X134.013 Y66.203 E57.7453
G1 F1422.8 X134.369 Y66.6 E57.76723
G1 F1555.6 X134.633 Y66.79 E57.77946
G1 F1686.7 X134.977 Y67.02 E57.79381
G1 F1728.4 X135.414 Y67.289 E57.81117
G1 F1715.7 X135.841 Y67.319 E57.82577
G1 F1388.9 X136.298 Y67.257 E57.84519
G1 X135.89 Y67.044 E57.86458
G1 F1719.9 X135.51 Y66.882 E57.87863
G1 F1724.1 X135.122 Y66.633 E57.89427
G1 F1647.1 X134.813 Y66.382 E57.90841
G1 F1498.9 X134.548 Y66.081 E57.92406
G1 F1388.9 X134.339 Y65.731 E57.94123
G1 F1609.2 X134.308 Y65.387 E57.95378
G1 F2000 X134.219 Y64.915 E57.96783
G1 X134.198 Y64.531 E57.97908
G1 X134.23 Y64.028 E57.99382
G1 X134.353 Y63.551 E58.00823
G1 X134.537 Y63.157 E58.02095
G1 F1808.8 X134.982 Y62.609 E58.04378
G1 F1473.7 X135.49 Y62.578 E58.06398
G1 F1308.4 X136.121 Y62.566 E58.09219
G1 F1346.2 X137.1 Y62.592 E58.13475
G1 F1483.1 X137.522 Y62.615 E58.15142
G1 F1555.6 X138.284 Y62.615 E58.18008
G1 F1750 X138.577 Y62.753 E58.1909
G1 F2000 X138.934 Y62.998 E58.20357
G1 X139.303 Y63.333 E58.21814
G1 X139.579 Y63.655 E58.23055
G1 X139.889 Y64.125 E58.24701
G1 X140.101 Y64.57 E58.26143
G1 X140.239 Y64.966 E58.2737
G1 X140.337 Y65.428 E58.28751
G1 X140.376 Y65.932 E58.30229
G1 X140.376 Y66.878 E58.32996
G1 F1772.2 X140.241 Y67.178 E58.34082
G1 F1440.3 X139.86 Y67.419 E58.35913
G1 X140.247 Y67.664 E58.37773
G1 F1772.2 X140.376 Y68.035 E58.3907
G1 F2000 X140.375 Y68.652 E58.40875
G1 X140.342 Y69.243 E58.42606
G1 X140.225 Y69.849 E58.44411
G1 F1861.7 X140.054 Y70.343 E58.46054
G1 F1580.1 X140.019 Y70.488 E58.46606
G1 F1566 X139.725 Y70.85 E58.48348
G1 F1794.9 X139.275 Y71.168 E58.50144
G1 F1955.3 X138.797 Y71.36 E58.51685
G1 F2046.8 X138.439 Y71.442 E58.52734
G1 F2134.1 X138.161 Y71.488 E58.53507
G1 F2201.3 X137.622 Y71.52 E58.54941
G1 F2272.7 X136.979 Y71.484 E58.56599
G1 F2287.6 X136.408 Y71.397 E58.58076
G1 F2187.5 X136.033 Y71.297 E58.59114
G1 F2058.8 X135.532 Y71.033 E58.60723
G1 F1781.2 X135.213 Y70.772 E58.62076
G1 F1476.8 X134.897 Y70.392 E58.64034
G1 F1351.4 X134.741 Y69.987 E58.65913
G1 F1348.7 X134.216 Y70.035 E58.68199
G1 X134.351 Y70.423 E58.69981
G1 X134.597 Y70.68 E58.71524
G1 F1467.5 X134.804 Y70.957 E58.72902
G1 F1616.6 X134.997 Y71.162 E58.73921
G1 F1781.2 X135.447 Y71.392 E58.75581
G1 F1983 X136.018 Y71.654 E58.77434
G1 F2127.7 X136.444 Y71.718 E58.78618
G1 F2302.6 X136.949 Y71.779 E58.79911
G1 F2272.7 X137.629 Y71.839 E58.81668
G1 F2201.3 X138.179 Y71.805 E58.83132
G1 F2134.1 X138.497 Y71.775 E58.84008
G1 F2046.8 X138.896 Y71.689 E58.85174
G1 F1933.7 X139.209 Y71.605 E58.86154
G1 F1813.5 X139.523 Y71.467 E58.87261
G1 F1703.2 X139.775 Y71.344 E58.88224
G1 F1548.7 X140.224 Y70.996 E58.9037
G1 F1461.4 X140.395 Y70.791 E58.91438
G1 F1580.1 X140.566 Y70.658 E58.9224
G1 F1799.5 X140.988 Y70.226 E58.94203
G1 F1928.4 X141.102 Y68.762 E58.98658
G1 F2000 X141.102 Y64.232 E59.11907
G1 X141.113 Y63.859 E59.12999
G1 X141.156 Y63.494 E59.14073
G1 X141.256 Y63.066 E59.15359
G1 F1794.9 X141.497 Y62.64 E59.16954
G1 F1511.9 X141.725 Y62.594 E59.17854
G1 F1434.4 X142.42 Y62.598 E59.20688
G1 F1505.4 X142.905 Y62.615 E59.22574
G1 F1552.1 X144.452 Y62.614 E59.28405
G1 F1745.6 X144.921 Y62.952 E59.30342
G1 F2000 X144.977 Y63.121 E59.30862
G1 X144.976 Y70.922 E59.53679
G1 F1715.7 X144.871 Y71.205 E59.54708
G1 F1335.9 X144.522 Y71.514 E59.56749
G1 X144.899 Y71.778 E59.58765
G1 F1715.7 X145.018 Y71.961 E59.59509
G1 F2000 X145.462 Y73.993 E59.65592
G1 X145.685 Y73.993 E59.66245
G1 X145.685 Y72.074 E59.71857
G1 X145.791 Y71.837 E59.72617
G1 F1498.9 X146.155 Y71.515 E59.74513
G1 F1333.3 X145.792 Y71.208 E59.76599
G1 F1715.7 X145.686 Y70.922 E59.77639
G1 F2000 X145.685 Y64.189 E59.97332
G1 X145.707 Y63.77 E59.98559
G1 X145.751 Y63.482 E59.99411
G1 X145.851 Y63.153 E60.00417
G1 X146.013 Y62.868 E60.01375
G1 F1612.9 X146.245 Y62.599 E60.02664
G1 F1341 X146.618 Y62.576 E60.04294
G1 F1361.9 X147.348 Y62.589 E60.0743
G1 F1470.6 X148.006 Y62.615 E60.10049
G1 F1555.6 X150.25 Y62.615 E60.18488
G1 F1750 X150.694 Y62.908 E60.20266
G1 F2000 X150.775 Y63.19 E60.21124
G1 X150.775 Y71.63 E60.4581
G1 X151.483 Y71.63 E60.4788
G1 X151.483 Y63.19 E60.72566
G1 X151.564 Y62.908 E60.73424
G1 F1737 X151.908 Y62.62 E60.74935
G1 F1545.3 X155.169 Y62.615 E60.8728
G1 F1750 X155.58 Y62.863 E60.88884
G1 F2000 X155.695 Y63.19 E60.89898
G1 X155.694 Y69.742 E61.09061
G1 X155.68 Y70.881 E61.12393
G1 X155.654 Y71.63 E61.14585
G1 X156.266 Y71.63 E61.16375
G1 X156.284 Y71.379 E61.17111
G1 X156.399 Y71.141 E61.17884
G1 X156.624 Y70.987 E61.18682
G1 X156.737 Y70.961 E61.19021
G1 X157.008 Y71.001 E61.19822
G1 X157.226 Y71.095 E61.20516
G1 F1891.9 X157.681 Y71.27 E61.22024
G1 F1818.2 X157.843 Y71.348 E61.22602
G1 F1808.8 X158.404 Y71.583 E61.24569
G1 F1694.9 X158.689 Y71.684 E61.25613
G1 F1590.9 X159.006 Y71.748 E61.26802
G1 F1559 X159.533 Y71.781 E61.28783
G1 F1545.3 X159.533 Y71.3 E61.30604
G1 F1552.1 X159.13 Y71.311 E61.32123
G1 F1594.5 X158.78 Y71.264 E61.33419
G1 F1694.9 X158.528 Y71.212 E61.34307
G1 F1781.2 X157.914 Y70.97 E61.36474
G1 F1837.3 X157.44 Y70.573 E61.38443
G1 F1944.4 X157.054 Y70.079 E61.40329
G1 F2000 X156.764 Y69.477 E61.42283
G1 X156.547 Y68.725 E61.44572
G1 X156.439 Y67.958 E61.46838
G1 X156.401 Y67.114 E61.49309
G1 X156.401 Y62.115 E61.6393
G1 X155.94 Y62.115 E61.65278
G1 F1750 X155.169 Y62.165 E61.67861
G1 F1545.3 X151.869 Y62.168 E61.80353
G1 F1737 X151.129 Y62.115 E61.82852
G1 F1750 X150.25 Y62.165 E61.85795
G1 F1545.3 X147.903 Y62.16 E61.94679
G1 F1461.4 X147.373 Y62.089 E61.9682
G1 F1369.9 X146.974 Y62.059 E61.98528
G1 F1338.4 X146.602 Y62.05 E62.00155
G1 F1348.7 X146.108 Y62.12 E62.02319
G1 F1624.1 X145.721 Y62.102 E62.03714
G1 F2000 X145.437 Y62.108 E62.04545
G1 F1745.6 X144.452 Y62.162 E62.07851
G1 F1545.3 X142.814 Y62.161 E62.14051
G1 F1498.9 X142.44 Y62.117 E62.15521
G1 F1431.5 X141.848 Y62.092 E62.17942
G1 F1397.2 X141.467 Y62.124 E62.19543
G1 F1437.4 X141.255 Y62.156 E62.20415
G1 F1690.8 X141.112 Y62.12 E62.20926
G1 F1971.8 X138.77 Y62.116 E62.27873
G1 F1750 X138.284 Y62.165 E62.29506
G1 F1555.6 X137.522 Y62.165 E62.32372
G1 F1483.1 X137.14 Y62.101 E62.33899
G1 F1364.5 X136.657 Y62.041 E62.35986
G1 F1298.7 X136.119 Y62.02 E62.38411
G1 F1308.4 X135.45 Y62.055 E62.41406
G1 F1397.2 X134.871 Y62.172 E62.43879
G1 F1548.7 X134.775 Y62.154 E62.44248
G1 F1804.1 X134.402 Y62.115 E62.45464
G1 F2000 X134.136 Y62.116 E62.46242
G1 F1750 X133.126 Y62.165 E62.49622
G1 F1545.3 X122.406 Y62.168 E62.90203
G1 F1737 X121.613 Y62.116 E62.92879
G1 F1750 X120.68 Y62.165 E62.96002
G1 F1545.3 X112.435 Y62.168 E63.27214
G1 F1737 X111.691 Y62.116 E63.29726
G1 F1750 X110.807 Y62.165 E63.32685
G1 F1545.3 X105.756 Y62.168 E63.51806
G1 F1737 X105.016 Y62.115 E63.54305
G1 F1750 X104.137 Y62.165 E63.57248
G1 F1548.7 X102.634 Y62.161 E63.62925
G1 F1498.9 X102.262 Y62.117 E63.64387
G1 F1431.5 X101.67 Y62.092 E63.66808
G1 F1394.4 X101.288 Y62.123 E63.68416
G1 F1440.3 X101.075 Y62.156 E63.69291
G1 F1694.9 X100.933 Y62.12 E63.69797
G1 F1971.8 X98.591 Y62.116 E63.76744
G1 F1750 X98.105 Y62.165 E63.78377
G1 F1555.6 X97.344 Y62.165 E63.81239
G1 F1483.1 X96.962 Y62.101 E63.82767
G1 F1364.5 X96.479 Y62.041 E63.84853
G1 F1298.7 X95.94 Y62.02 E63.87283
G1 F1308.4 X95.272 Y62.055 E63.90273
G1 F1397.2 X94.693 Y62.172 E63.92746
G1 F1548.7 X94.597 Y62.154 E63.93115
G1 F1804.1 X94.224 Y62.115 E63.94331
G1 F2000 X93.963 Y62.116 E63.95095
G1 F1750 X92.956 Y62.165 E63.98465
G1 F1545.3 X90.711 Y62.168 E64.06963
G1 F1737 X89.966 Y62.115 E64.09479
G1 F1750 X89.082 Y62.165 E64.12438
G1 F1545.3 X84.032 Y62.168 E64.31555
G1 F1737 X83.292 Y62.115 E64.34054
G1 F1750 X82.413 Y62.165 E64.36997
G1 F1545.3 X77.528 Y62.168 E64.55489
G1 F1737 X76.788 Y62.115 E64.57987
G1 F1750 X75.909 Y62.165 E64.6093
G1 F1545.3 X73.14 Y62.168 E64.71413
G1 F1737 X72.4 Y62.115 E64.73911
G1 F1750 X71.521 Y62.165 E64.76854
G1 F1545.3 X69.115 Y62.168 E64.85962
G1 F1737 X68.385 Y62.116 E64.88427
G1 F1750 X67.516 Y62.165 E64.91336
G1 F1545.3 X63.012 Y62.168 E65.08386
G1 F1737 X62.282 Y62.116 E65.10851
G1 F1750 X61.413 Y62.165 E65.1376
G1 F1545.3 X56.909 Y62.168 E65.3081
G1 F1737 X56.174 Y62.116 E65.33292
G1 F1750 X55.3 Y62.165 E65.36218
G1 F1545.3 X44.253 Y62.168 E65.78037
G1 F1737 X43.549 Y62.115 E65.80414
G1 F2000 X43.052 Y62.115 E65.81868
G1 X43.054 Y74.821 E66.19031
G1 X43.532 Y74.821 E66.20429
G1 F1837.3 X44.392 Y74.792 E66.23168
G1 F1703.2 X52.41 Y74.792 E66.50707
G1 X52.41 Y74.38 E66.52122
G1 X44.392 Y74.381 E66.7966
G1 F1837.3 X43.941 Y74.097 E66.81357
G1 F2000 X43.867 Y73.897 E66.81981
G1 X43.867 Y69.411 E66.95101
G1 X44.013 Y69.046 E66.96251
G1 F1856.8 X44.344 Y68.86 E66.97447
G1 F1737 X51.828 Y68.86 E67.22651
G1 F1741.3 X51.828 Y68.459 E67.23998
G1 F1737 X44.344 Y68.458 E67.49202
G1 F1856.8 X44.013 Y68.273 E67.50397
G1 F2000 X43.867 Y67.985 E67.51341
G1 X43.867 Y63.19 E67.65366
G1 X43.958 Y62.893 E67.66274
G1 F1737 X44.292 Y62.62 E67.67727
G1 F1545.3 X55.3 Y62.615 E68.09398
G1 F1750 X55.743 Y62.906 E68.1117
G1 F2000 X55.825 Y63.19 E68.12035
G1 X55.821 Y70.742 E68.34123
G1 F1605.5 X55.897 Y71.146 E68.35621
G1 F1348.7 X55.884 Y71.547 E68.37361
G1 F1359.2 X56.372 Y71.547 E68.39461
G1 F1348.7 X56.418 Y71.188 E68.41031
G1 F1605.5 X56.593 Y70.971 E68.42046
G1 F2000 X56.759 Y70.818 E68.42707
G1 F1939.1 X57.088 Y70.736 E68.4373
G1 F1822.9 X57.765 Y71.01 E68.46073
G1 F1876.7 X57.251 Y70.406 E68.48545
G1 F2000 X56.937 Y69.887 E68.50319
G1 X56.693 Y69.195 E68.52466
G1 X56.564 Y68.478 E68.54596
G1 X56.523 Y67.752 E68.56723
G1 X56.523 Y63.19 E68.70066
G1 X56.605 Y62.906 E68.70931
G1 F1737 X56.948 Y62.62 E68.72435
G1 F1545.3 X61.413 Y62.615 E68.89337
G1 F1750 X61.854 Y62.903 E68.91098
G1 F1612.9 X62.022 Y63.19 E68.92304
G1 F1346.2 X62.023 Y67.773 E69.12219
G1 F1609.2 X61.937 Y68.122 E69.13526
G1 F2000 X61.938 Y68.302 E69.14052
G1 X61.908 Y69.069 E69.16297
G1 X61.814 Y69.725 E69.18235
G1 X61.668 Y70.248 E69.19824
G1 F2005.7 X61.457 Y70.653 E69.21155
G1 F1715.7 X61.023 Y71.174 E69.23467
G1 F1627.9 X60.612 Y71.366 E69.25097
G1 F1832.5 X60.242 Y71.442 E69.26303
G1 F1335.9 X59.939 Y71.651 E69.27915
G1 X60.297 Y71.804 E69.2962
G1 F1822.9 X60.622 Y71.771 E69.30668
G1 F1715.7 X61.358 Y71.577 E69.33263
G1 F1827.7 X61.692 Y71.439 E69.3442
G1 F2000 X62.916 Y70.396 E69.39123
G1 X63.312 Y70.365 E69.40285
G1 X63.031 Y69.887 E69.41907
G1 X62.795 Y69.202 E69.44026
G1 X62.671 Y68.523 E69.46045
G1 X62.648 Y68.103 E69.47275
G1 F1609.2 X62.543 Y67.759 E69.48582
G1 F1346.2 X62.542 Y63.19 E69.68437
G1 F1612.9 X62.71 Y62.903 E69.69643
G1 F1737 X63.051 Y62.62 E69.71135
G1 F1545.3 X67.516 Y62.615 E69.88038
G1 F1750 X67.957 Y62.903 E69.89798
G1 F1612.9 X68.125 Y63.19 E69.91004
G1 F1348.7 X68.125 Y68.351 E70.13388
G1 F1612.9 X68.028 Y68.696 E70.14688
G1 F2000 X68.011 Y69.07 E70.15783
G1 X67.931 Y69.674 E70.17565
G1 X67.778 Y70.228 E70.19246
G1 X67.527 Y70.718 E70.20856
G1 X67.168 Y71.085 E70.22358
G1 X66.726 Y71.328 E70.23833
G1 X66.636 Y71.358 E70.2411
G1 F1320.8 X66.265 Y71.638 E70.26169
G1 X66.753 Y71.802 E70.28449
G1 F2000 X67.394 Y71.636 E70.30386
G1 X67.806 Y71.426 E70.31738
G1 X68.122 Y71.138 E70.32989
G1 X68.365 Y70.753 E70.3432
G1 X68.56 Y70.199 E70.36038
G1 X68.729 Y69.24 E70.38886
G1 X68.729 Y68.709 E70.40439
G1 F1612.9 X68.645 Y68.36 E70.41741
G1 F1348.7 X68.645 Y63.19 E70.64164
G1 F1612.9 X68.813 Y62.903 E70.6537
G1 F1737 X69.154 Y62.62 E70.66862
G1 F1545.3 X71.521 Y62.615 E70.75823
G1 F1750 X71.965 Y62.908 E70.77601
G1 F2000 X72.046 Y63.19 E70.78459
G1 X72.046 Y75.556 E71.14627
G1 X72.754 Y75.556 E71.16698
G1 X72.754 Y63.19 E71.52866
G1 X72.835 Y62.908 E71.53724
G1 F1737 X73.179 Y62.62 E71.55235
G1 F1545.3 X75.909 Y62.615 E71.6557
G1 F1750 X76.353 Y62.908 E71.67348
G1 F2000 X76.434 Y63.19 E71.68206
G1 X76.435 Y69.692 E71.87223
G1 X76.42 Y70.881 E71.90701
G1 X76.394 Y71.63 E71.92893
G1 X77.006 Y71.63 E71.94683
G1 X77.024 Y71.379 E71.95419
G1 X77.139 Y71.141 E71.96192
G1 X77.364 Y70.987 E71.9699
G1 X77.476 Y70.961 E71.97326
G1 X77.748 Y71 E71.9813
G1 X77.966 Y71.095 E71.98825
G1 F1891.9 X78.421 Y71.27 E72.00333
G1 F1818.2 X78.583 Y71.348 E72.00911
G1 F1808.8 X79.144 Y71.584 E72.02879
G1 F1699 X79.429 Y71.683 E72.03918
G1 F1594.5 X79.746 Y71.748 E72.05105
G1 F1559 X80.273 Y71.781 E72.07086
G1 F1545.3 X80.273 Y71.3 E72.08907
G1 F1552.1 X79.871 Y71.311 E72.10423
G1 F1598.2 X79.52 Y71.265 E72.11719
G1 F1699 X79.268 Y71.213 E72.12605
G1 F1781.2 X78.654 Y70.97 E72.14773
G1 F1837.3 X78.184 Y70.577 E72.16724
G1 F1944.4 X77.795 Y70.076 E72.18632
G1 F2000 X77.505 Y69.477 E72.20578
G1 X77.288 Y68.725 E72.22868
G1 X77.18 Y67.958 E72.25133
G1 X77.142 Y67.114 E72.27604
G1 X77.142 Y63.19 E72.39081
G1 X77.223 Y62.908 E72.39939
G1 F1737 X77.567 Y62.62 E72.4145
G1 F1545.3 X82.413 Y62.615 E72.59795
G1 F1750 X82.857 Y62.908 E72.61573
G1 F2000 X82.938 Y63.19 E72.62431
G1 X82.938 Y75.556 E72.98599
G1 X83.646 Y75.556 E73.0067
G1 X83.646 Y71.212 E73.13376
G1 X83.913 Y70.737 E73.14969
G1 X84.303 Y70.702 E73.16115
G1 F1856.8 X84.91 Y70.962 E73.18195
G1 F1658.8 X85.038 Y71.006 E73.18672
G1 F1643.2 X85.536 Y71.274 E73.20686
G1 F1461.4 X86.185 Y71.536 E73.23487
G1 F1241.1 X86.529 Y71.602 E73.25138
G1 F1162.8 X86.906 Y71.653 E73.27052
G1 F1081.9 X87.395 Y71.658 E73.29696
G0 F10000 X89.429 Y70.82
G0 X89.427 Y70.824
G1 F1794.9 X89.589 Y70.56 E73.30705
G1 F1707.3 X89.753 Y70.186 E73.32104
G1 F1776.6 X89.846 Y69.801 E73.33409
G1 F1767.7 X89.944 Y69.212 E73.35384
G1 X89.96 Y68.826 E73.36663
G1 F1871.7 X89.966 Y63.19 E73.54278
G1 F1955.3 X90.015 Y62.927 E73.55078
G1 F2023.1 X90.111 Y62.725 E73.55725
G1 F2034.9 X90.504 Y62.462 E73.57084
G1 X89.343 Y62.462 E73.60421
G1 X89.821 Y62.725 E73.6199
G1 F2023.1 X89.917 Y62.927 E73.62636
G1 F1955.3 X89.966 Y63.19 E73.63437
G0 F10000 X90.047 Y62.387
G0 X94.205 Y62.394
G0 X93.841 Y63.371
G1 F1643.2 X93.705 Y63.768 E73.64931
G1 F1666.7 X93.677 Y64.041 E73.65894
G1 F1754.4 X93.644 Y64.54 E73.67561
G1 F1627.9 X93.704 Y65.331 E73.70412
G1 F1631.7 X93.78 Y65.522 E73.71149
G0 F10000 X93.739 Y64.697
G0 X93.841 Y63.371
G1 F1699 X94.024 Y62.966 E73.72679
G1 F1682.7 X94.288 Y62.629 E73.74167
G1 X94.444 Y62.499 E73.74873
G1 X93.301 Y62.499 E73.78847
G1 X93.776 Y62.797 E73.80796
G1 X93.852 Y63.036 E73.81668
G1 F1699 X93.841 Y63.371 E73.82822
G0 F10000 X94.229 Y65.333
G0 X94.544 Y66.024
G0 X94.958 Y66.447
G0 X96.041 Y67.246
G1 F1200.7 X96.554 Y67.312 E73.85342
G1 F1279.7 X97.111 Y67.361 E73.87898
G1 F1306 X99.681 Y67.419 E73.99412
G0 F10000 X100.073 Y67.215
G0 X100.537 Y65.352
G1 F1754.4 X100.56 Y65.923 E74.01317
G1 F1832.5 X100.554 Y66.957 E74.04618
G1 F1431.5 X100.453 Y67.419 E74.06551
G1 F1449.3 X100.56 Y68.035 E74.09074
G1 F1847 X100.557 Y68.75 E74.11339
G1 F1822.9 X100.512 Y69.408 E74.13455
G1 F1871.7 X100.403 Y69.879 E74.14966
G0 F10000 X100.425 Y69.527
G0 X100.537 Y65.352
G1 F1813.5 X100.573 Y64.949 E74.16271
G1 F2000 X100.573 Y64.22 E74.18403
G1 X100.586 Y63.844 E74.19504
G1 X100.63 Y63.451 E74.2066
G1 X100.738 Y62.984 E74.22062
G1 F1971.8 X100.963 Y62.555 E74.23499
G1 F1960.8 X101.057 Y62.483 E74.23853
G1 F1988.6 X100.329 Y62.465 E74.25995
G1 F2000 X98.598 Y62.466 E74.31058
G1 X98.94 Y62.695 E74.32261
G1 X99.354 Y63.061 E74.33878
G1 X99.669 Y63.43 E74.35297
G1 X100.001 Y63.921 E74.3703
G1 X100.213 Y64.355 E74.38443
G1 X100.391 Y64.851 E74.39984
G1 F1813.5 X100.537 Y65.352 E74.41667
G0 F10000 X100.697 Y63.417
G0 X100.951 Y62.384
G0 X104.94 Y62.387
G0 X105.016 Y63.19
G1 F1949.9 X105.015 Y67.722 E74.55264
G1 F1785.7 X105.047 Y68.624 E74.5822
G1 F1576.6 X105.067 Y69.296 E74.60715
G1 F1508.6 X105.07 Y70.751 E74.66356
G1 X105.439 Y70.405 E74.68318
G1 X105.675 Y70.379 E74.69238
G1 X105.473 Y70.074 E74.70657
G1 X105.178 Y69.349 E74.73692
G1 F1576.6 X105.047 Y68.624 E74.76425
G0 F10000 X106.735 Y71.01
G1 F1580.1 X107.254 Y71.282 E74.78595
G1 F1502.1 X107.87 Y71.524 E74.81172
G1 F1275 X108.285 Y71.608 E74.83114
G1 F1158.9 X108.637 Y71.653 E74.84906
G1 F1081.9 X109.134 Y71.658 E74.87593
G0 F10000 X111.149 Y70.804
G1 F1724.1 X111.314 Y70.551 E74.88618
G1 F1682.7 X111.481 Y70.151 E74.90124
G1 F1741.3 X111.574 Y69.754 E74.91494
G1 F1785.7 X111.628 Y69.45 E74.92506
G1 F1818.2 X111.687 Y68.596 E74.9526
G1 F1891.9 X111.691 Y63.19 E75.11975
G1 F1966.3 X111.74 Y62.927 E75.12771
G1 F2029 X111.836 Y62.725 E75.13416
G1 F2040.8 X112.23 Y62.462 E75.14773
G1 X111.066 Y62.462 E75.1811
G1 X111.546 Y62.725 E75.19679
G1 F2029 X111.642 Y62.927 E75.20323
G1 F1966.3 X111.691 Y63.19 E75.21119
G0 F10000 X111.61 Y62.387
G0 X105.092 Y62.387
G0 X105.016 Y63.19
G1 F1994.3 X105.064 Y62.925 E75.21909
G1 F2046.8 X105.16 Y62.722 E75.22551
G1 F2052.8 X105.554 Y62.46 E75.23899
G1 X104.393 Y62.46 E75.27208
G1 X104.872 Y62.722 E75.28763
G1 F2046.8 X104.968 Y62.925 E75.29405
G1 F1994.3 X105.016 Y63.19 E75.30195
G0 F10000 X105.092 Y62.387
G0 X121.483 Y62.387
G0 X121.613 Y63.19
G1 F1483.1 X121.619 Y67.113 E75.45669
G0 F10000 X121.613 Y68.425
G1 F1483.1 X121.619 Y74.016 E75.67721
G1 F1301.1 X121.678 Y74.35 E75.69246
G0 F10000 X122.088 Y74.115
G1 F2000 X122.02 Y73.925 E75.69837
G1 X122.02 Y68.425 E75.85923
G1 X122.161 Y68.066 E75.87051
G1 F1994.3 X122.297 Y67.96 E75.87557
G1 F1891.9 X122.497 Y67.882 E75.88221
G1 F1799.5 X126.396 Y67.884 E76.00895
G1 F1724.1 X127.482 Y68.003 E76.04602
G1 F1639.3 X127.873 Y68.065 E76.06014
G1 F1587.3 X128.186 Y68.206 E76.0728
G1 F1538.5 X128.972 Y68.606 E76.10633
G1 F1479.9 X129.262 Y68.876 E76.12199
G1 F1670.6 X129.41 Y69.274 E76.13686
G1 F2000 X129.746 Y69.772 E76.15443
G1 X129.981 Y71.198 E76.1967
G1 X129.744 Y72.564 E76.23725
G1 X129.168 Y73.364 E76.26608
G1 F1686.7 X128.973 Y73.699 E76.27952
G1 F1470.6 X128.172 Y74.08 E76.31481
G1 F1552.1 X127.823 Y74.228 E76.32909
G1 F1616.6 X127.443 Y74.283 E76.34299
G1 F1678.7 X126.309 Y74.4 E76.38271
G1 F1758.8 X122.545 Y74.402 E76.5079
G1 F1876.7 X122.088 Y74.115 E76.52472
G0 F10000 X121.67 Y74.115
G0 X121.613 Y68.425
G1 F1662.7 X121.895 Y67.817 E76.5483
G1 F1851.9 X122.064 Y67.688 E76.55502
G1 X121.895 Y67.559 E76.56173
G1 F1631.7 X121.619 Y67.113 E76.58054
G1 X121.569 Y67.688 E76.60123
G1 F1662.7 X121.613 Y68.425 E76.6272
G0 F10000 X121.613 Y63.19
G1 F1635.5 X121.682 Y62.945 E76.63631
G1 F1832.5 X121.774 Y62.753 E76.6431
G1 F1886.8 X122.169 Y62.476 E76.65806
G1 X120.973 Y62.476 E76.69514
G1 X121.451 Y62.753 E76.71227
G1 F1832.5 X121.544 Y62.945 E76.71908
G1 F1635.5 X121.613 Y63.19 E76.72818
G0 F10000 X122.142 Y67.354
G0 X126.417 Y67.395
G0 X129.714 Y69.069
G1 F1745.6 X129.859 Y69.255 E76.73608
G1 F1699 X130.085 Y69.626 E76.75104
G1 F1476.8 X130.256 Y70.105 E76.77119
G1 F1343.6 X130.391 Y71.204 E76.81939
G1 F1361.9 X130.293 Y71.962 E76.85222
G1 F1419.9 X130.127 Y72.676 E76.88242
G1 F1515.2 X129.853 Y73.112 E76.9023
G1 F1639.3 X129.467 Y73.58 E76.92395
G1 F1800 E76.12395
G0 F10000 X130.266 Y68.968
G0 X126.575 Y67.365
G0 X122.142 Y67.354
G0 X122.142 Y62.787
G0 X133.636 Y62.791
G0 X133.965 Y65.501
G1 F1800 E76.92395
G1 F1799.5 X133.858 Y65.079 E76.9381
G1 F1737 X133.822 Y64.543 E76.9562
G1 F1750 X133.86 Y63.976 E76.97519
G1 F1741.3 X134.004 Y63.406 E76.99494
G0 F10000 X134.016 Y63.38
G1 F1686.7 X134.199 Y62.967 E77.01061
G1 F1674.6 X134.465 Y62.628 E77.02566
G1 X134.619 Y62.5 E77.03265
G1 X133.473 Y62.5 E77.07268
G1 X133.948 Y62.798 E77.09227
G1 X134.023 Y63.035 E77.10095
G1 F1686.7 X134.016 Y63.38 E77.11292
G0 F10000 X134.407 Y65.333
G0 X134.723 Y66.024
G0 X135.137 Y66.447
G0 X136.298 Y67.257
G1 F1213.2 X136.731 Y67.312 E77.13397
G1 F1279.7 X137.289 Y67.361 E77.15957
G1 F1306 X139.86 Y67.419 E77.27476
G0 F10000 X140.252 Y67.215
G0 X140.715 Y65.352
G1 F1750 X140.739 Y65.932 E77.29416
G1 F1832.5 X140.733 Y66.957 E77.32688
G1 F1431.5 X140.632 Y67.419 E77.34621
G1 F1449.3 X140.739 Y68.035 E77.37144
G1 F1847 X140.736 Y68.749 E77.39406
G1 X140.689 Y69.376 E77.41397
G1 F1658.8 X140.591 Y70.043 E77.43775
G0 F10000 X141.269 Y63.488
G0 X141.446 Y62.784
G0 X144.855 Y62.787
G0 X144.855 Y71.279
G0 X143.872 Y71.516
G1 F1206.9 X144.522 Y71.514 E77.46925
G0 F10000 X145.331 Y70.952
G1 F1939.1 X145.331 Y64.173 E77.67376
G1 F1912.6 X145.34 Y63.809 E77.68489
G1 F1745.6 X145.367 Y63.424 E77.69782
G0 F10000 X145.366 Y63.395
G1 F1690.8 X145.536 Y62.911 E77.71557
G1 F1711.5 X145.765 Y62.558 E77.72995
G1 F1719.9 X145.952 Y62.446 E77.73737
G1 F1724.1 X145.64 Y62.486 E77.74804
G1 X144.78 Y62.489 E77.77722
G1 X145.258 Y62.78 E77.7962
G1 X145.34 Y63.026 E77.805
G1 F1703.2 X145.366 Y63.395 E77.81771
G0 F10000 X145.255 Y62.387
G0 X141.129 Y62.384
G0 X140.886 Y63.543
G0 X140.715 Y65.352
G1 F1808.8 X140.752 Y64.949 E77.83079
G1 F2000 X140.752 Y64.221 E77.85209
G1 X140.763 Y63.848 E77.863
G1 X140.808 Y63.451 E77.87469
G1 X140.916 Y62.984 E77.88871
G1 F1971.8 X141.142 Y62.554 E77.90312
G1 F1955.3 X141.234 Y62.484 E77.90658
G1 F1988.6 X140.507 Y62.465 E77.92797
G1 F2000 X138.777 Y62.466 E77.97857
G1 X139.124 Y62.698 E77.99078
G1 X139.569 Y63.105 E78.00841
G1 X139.847 Y63.43 E78.02092
G1 X140.148 Y63.875 E78.03664
G1 X140.406 Y64.38 E78.05322
G1 X140.57 Y64.851 E78.06781
G1 F1808.8 X140.715 Y65.352 E78.08468
G0 F10000 X140.875 Y63.417
G0 X141.129 Y62.384
G0 X145.255 Y62.387
G0 X145.331 Y70.952
G1 F1933.7 X145.287 Y71.157 E78.09102
G1 F1944.4 X145.182 Y71.369 E78.09814
G1 X145.075 Y71.482 E78.10282
G1 X145.194 Y71.585 E78.10755
G1 F1949.9 X145.366 Y71.923 E78.11893
G1 F1955.3 X145.508 Y71.624 E78.12883
G1 X145.623 Y71.516 E78.13355
G1 X145.508 Y71.408 E78.13827
G1 F1949.9 X145.375 Y71.157 E78.14679
G1 F1933.7 X145.331 Y70.952 E78.15314
G0 F10000 X146.155 Y71.515
G1 F1204.8 X147.524 Y71.516 E78.2196
G0 F10000 X145.807 Y71.279
G0 X145.813 Y63.814
G0 X145.971 Y63.146
G0 X146.198 Y62.781
G0 X150.653 Y62.787
G0 X151.129 Y71.276
G1 F1955.3 X151.129 Y63.19 E78.46151
G1 F1994.3 X151.177 Y62.925 E78.46941
G1 F2046.8 X151.273 Y62.722 E78.47583
G1 F2052.8 X151.667 Y62.46 E78.48931
G1 X150.506 Y62.46 E78.5224
G1 X150.985 Y62.722 E78.53795
G1 F2046.8 X151.081 Y62.925 E78.54437
G1 F1994.3 X151.129 Y63.19 E78.55227
G0 F10000 X151.205 Y62.387
G0 X155.972 Y62.387
G0 X155.94 Y62.576
G1 F1508.6 X156.048 Y63.19 E78.57644
G1 F1966.3 X156.048 Y67.09 E78.69247
G1 F1842.1 X156.071 Y68.064 E78.7234
G1 F1535.1 X156.123 Y68.786 E78.75099
G0 F10000 X155.939 Y71.137
G0 X156.021 Y71.141
G1 F2000 X156.133 Y70.913 E78.75842
G1 X156.516 Y70.654 E78.77194
G1 X156.697 Y70.613 E78.77737
G1 X157.071 Y70.669 E78.78843
G1 X156.755 Y70.265 E78.80343
G1 X156.441 Y69.612 E78.82462
G1 F1799.5 X156.128 Y68.763 E78.85404
G1 F1598.2 X156.093 Y68.919 E78.85989
G1 F1758.8 X156.044 Y69.569 E78.88157
G1 F2000 X156.021 Y71.141 E78.92755
G1 F1800 E78.12755
G0 F10000 X155.939 Y71.137
G0 X155.972 Y62.387
G0 X83.368 Y62.387
G0 X83.292 Y71.212
G1 F1800 E78.92755
G1 F1955.3 X83.292 Y75.202 E79.04692
G0 F10000 X83.326 Y68.711
G1 F1790.3 X83.292 Y67.831 E79.0757
G1 F1955.3 X83.292 Y63.19 E79.21454
G1 F1994.3 X83.34 Y62.925 E79.22244
G1 F2046.8 X83.436 Y62.722 E79.22886
G1 F2052.8 X83.83 Y62.46 E79.24234
G1 X82.669 Y62.46 E79.27542
G1 X83.148 Y62.722 E79.29098
G1 F2046.8 X83.244 Y62.925 E79.2974
G1 F1994.3 X83.292 Y63.19 E79.3053
G0 F10000 X83.326 Y68.711
G1 F1587.3 X83.342 Y69.345 E79.32867
G1 F1525.1 X83.342 Y70.22 E79.36223
G1 F1715.7 X83.292 Y71.212 E79.3961
G1 X83.69 Y70.416 E79.42644
G1 F1525.1 X83.936 Y70.352 E79.43619
G1 X83.774 Y70.111 E79.44733
G1 X83.465 Y69.406 E79.47685
G1 F1587.3 X83.326 Y68.711 E79.50297
G0 F10000 X83.216 Y62.387
G0 X76.864 Y62.387
G0 X76.864 Y68.786
G1 F1548.7 X76.807 Y67.974 E79.53372
G1 F1856.8 X76.788 Y67.09 E79.56158
G1 F1955.3 X76.788 Y63.19 E79.67825
G1 F1994.3 X76.836 Y62.925 E79.68615
G1 F2046.8 X76.932 Y62.722 E79.69257
G1 F2052.8 X77.326 Y62.46 E79.70605
G1 X76.165 Y62.46 E79.73913
G1 X76.644 Y62.722 E79.75469
G1 F2046.8 X76.74 Y62.925 E79.76111
G1 F1994.3 X76.788 Y63.19 E79.76901
G0 F10000 X76.712 Y62.387
G0 X72.476 Y62.387
G0 X72.4 Y63.19
G1 F1955.3 X72.4 Y75.202 E80.12837
G0 F10000 X72.476 Y62.387
G0 X76.712 Y62.387
G0 X76.706 Y64.864
G0 X76.679 Y71.137
G0 X76.761 Y71.141
G1 F2000 X76.873 Y70.913 E80.1358
G1 X77.255 Y70.654 E80.1493
G1 X77.434 Y70.613 E80.15467
G1 X77.811 Y70.668 E80.16581
G1 X77.493 Y70.26 E80.18094
G1 X77.182 Y69.612 E80.20196
G1 F1799.5 X76.869 Y68.764 E80.23135
G1 F1598.2 X76.832 Y68.919 E80.23718
G1 F1758.8 X76.785 Y69.569 E80.25886
G1 F2000 X76.761 Y71.141 E80.30484
G0 F10000 X76.679 Y71.137
G0 X76.724 Y69.699
G0 X76.712 Y62.387
G0 X68.451 Y62.387
G0 X68.378 Y68.709
G1 F1902.2 X68.362 Y69.209 E80.32022
G1 F1881.7 X68.282 Y69.735 E80.33676
G1 F1851.9 X68.198 Y70.105 E80.34875
G1 F1808.8 X68.122 Y70.349 E80.35701
G1 F1781.2 X68.022 Y70.587 E80.36549
G1 F1776.6 X67.85 Y70.886 E80.37685
G1 F1928.4 X67.606 Y71.137 E80.38747
G0 F10000 X67.025 Y71.463
G0 X66.265 Y71.638
G1 F994.3 X66.168 Y71.651 E80.39322
G1 F1120 X65.505 Y71.647 E80.42785
G1 F1330.8 X64.952 Y71.534 E80.45266
G1 F1502.1 X64.615 Y71.397 E80.46683
G0 F10000 X63.212 Y70.305
G0 X61.619 Y71.031
G1 F1949.9 X61.493 Y71.148 E80.47199
G0 F10000 X61.494 Y71.147
G0 X59.939 Y71.651
G1 F1062.2 X59.544 Y71.655 E80.49374
G1 F1149.4 X59.272 Y71.617 E80.50772
G1 F1272.7 X58.854 Y71.528 E80.52736
G1 F1535.1 X58.228 Y71.265 E80.55323
G1 F1682.7 X57.75 Y70.993 E80.57235
G0 F10000 X56.201 Y68.613
G1 F1847 X56.173 Y67.771 E80.59904
G1 F1912.6 X56.173 Y66.15 E80.64861
G1 F1776.6 X56.173 Y64.529 E80.70199
G1 F1658.8 X56.174 Y62.908 E80.75915
G1 F1259 X56.174 Y62.629 E80.77211
G0 F10000 X56.173 Y62.629
G0 X56.201 Y68.613
G1 F1639.3 X56.222 Y69.275 E80.79575
G1 F1559 X56.218 Y70.856 E80.85507
G1 X56.265 Y70.743 E80.85966
G1 X56.558 Y70.473 E80.87461
G1 X56.79 Y70.415 E80.88358
G1 X56.577 Y70.062 E80.89905
G1 X56.31 Y69.33 E80.92829
G1 F1639.3 X56.201 Y68.613 E80.95417
G0 F10000 X56.245 Y62.387
G0 X62.216 Y62.387
G0 X62.304 Y68.615
G1 F1822.9 X62.292 Y68.122 E80.96999
G0 F10000 X62.304 Y68.615
G1 F1616.6 X62.317 Y69.035 E80.9852
G1 F1515.2 X62.225 Y69.763 E81.01353
G1 X62.047 Y70.399 E81.03902
G1 X61.856 Y70.767 E81.05503
G1 X62.667 Y70.075 E81.09619
G1 X62.434 Y69.42 E81.12303
G1 X62.351 Y69.032 E81.13835
G1 F1616.6 X62.304 Y68.615 E81.15353
G0 F10000 X62.276 Y62.626
G0 X62.365 Y62.626
G1 F1044.8 X62.323 Y62.697 E81.15815
G1 X62.241 Y62.697 E81.16274
G1 X62.199 Y62.626 E81.16736
G1 X62.241 Y62.555 E81.17198
G1 X62.272 Y62.555 E81.17372
G0 F1800 X62.323 Y62.555
G0 F10000 X62.276 Y62.555
G0 X68.319 Y62.387
G0 X68.426 Y62.555
G1 F1044.8 X68.344 Y62.555 E81.17831
G1 X68.302 Y62.626 E81.18293
G1 X68.344 Y62.697 E81.18754
G1 X68.426 Y62.697 E81.19214
G1 X68.442 Y62.67 E81.19389
G0 F1800 X68.468 Y62.626
G0 F10000 X68.379 Y62.626
G0 X72.324 Y62.387
G0 X72.4 Y63.19
G1 F1994.3 X72.448 Y62.925 E81.20179
G1 F2046.8 X72.544 Y62.722 E81.20821
G1 F2052.8 X72.938 Y62.46 E81.22169
G1 X71.777 Y62.46 E81.25478
G1 X72.256 Y62.722 E81.27034
G1 F2046.8 X72.352 Y62.925 E81.27675
G1 F1994.3 X72.4 Y63.19 E81.28465
G1 F1800 E80.48465
G0 F10000 X72.324 Y62.387
G0 X43.589 Y62.387
G0 X43.46 Y69.411
G1 F1800 E81.28465
G1 F1483.1 X43.466 Y73.987 E81.46514
G1 F1289.1 X43.532 Y74.343 E81.48157
G0 F10000 X43.517 Y74.343
G0 X43.46 Y69.411
G1 F1654.8 X43.749 Y68.793 E81.50569
G1 F1827.7 X43.927 Y68.66 E81.5128
G1 X43.749 Y68.527 E81.51991
G1 F1624.1 X43.466 Y68.07 E81.53927
G1 X43.419 Y68.66 E81.56059
G1 F1654.8 X43.46 Y69.411 E81.58718
G1 F1800 E80.78718
G0 F10000 X43.589 Y62.387
G0 X56.103 Y62.387
G0 X56.173 Y63.081
G0 X56.879 Y63.081
;TYPE:WALL-OUTER
G1 F1800 E81.58718
G1 F2000 X57.013 Y62.992 E81.59188
G1 X61.413 Y62.99 E81.72057
G1 X61.581 Y63.081 E81.72616
G1 X61.613 Y63.19 E81.72948
G1 X61.613 Y68.29 E81.87865
G1 X61.585 Y69.026 E81.90019
G1 X61.507 Y69.61 E81.91742
G1 X61.355 Y70.146 E81.93372
G1 X61.155 Y70.53 E81.94638
G1 F2005.7 X60.868 Y70.817 E81.95822
G1 X60.498 Y71.025 E81.9706
G1 X60 Y71.156 E81.98562
G1 X59.458 Y71.194 E82.00146
G1 F2000 X58.886 Y71.129 E82.0183
G1 X58.381 Y70.957 E82.0339
G1 X57.914 Y70.65 E82.05025
G1 X57.529 Y70.237 E82.06676
G1 X57.226 Y69.731 E82.08401
G1 X57.021 Y69.167 E82.10157
G1 X56.891 Y68.483 E82.12193
G1 X56.848 Y67.722 E82.14422
G1 X56.848 Y64.487 E82.23884
G0 F1800 X56.848 Y63.147
G0 X56.879 Y63.081
G1 F1800 E81.43884
G0 F10000 X56.173 Y63.081
G0 X56.245 Y62.387
G0 X62.216 Y62.387
G0 X62.276 Y63.146
G0 X62.951 Y63.146
G1 F1800 E82.23884
G1 F2000 X63.116 Y62.992 E82.24544
G1 X67.516 Y62.99 E82.37413
G1 X67.684 Y63.081 E82.37972
G1 X67.716 Y63.19 E82.38305
G1 X67.716 Y68.336 E82.53356
G1 X67.689 Y69.026 E82.55375
G1 X67.609 Y69.617 E82.5712
G1 X67.47 Y70.12 E82.58646
G1 X67.265 Y70.516 E82.5995
G1 X66.953 Y70.833 E82.61251
G1 X66.589 Y71.032 E82.62464
G1 X66.104 Y71.156 E82.63929
G1 X65.56 Y71.194 E82.65524
G1 X64.974 Y71.131 E82.67247
G1 X64.469 Y70.96 E82.68807
G1 F1724.1 X63.993 Y70.722 E82.70612
G1 F1609.2 X63.618 Y70.336 E82.72569
G1 F1847 X63.321 Y69.73 E82.74706
G1 F2000 X63.115 Y69.144 E82.76523
G1 X62.993 Y68.479 E82.785
G1 X62.951 Y67.702 E82.80776
G1 X62.951 Y64.094 E82.91329
G0 F1800 X62.951 Y63.146
G1 F1800 E82.11329
G0 F10000 X62.276 Y63.146
G0 X62.348 Y62.387
G0 X89.885 Y62.387
G0 X89.957 Y63.083
G0 X89.252 Y63.083
G1 F1800 E82.91329
G1 F2000 X89.282 Y63.19 E82.91654
G1 X89.282 Y68.29 E83.06571
G1 X89.27 Y68.822 E83.08127
G1 X89.229 Y69.298 E83.09524
G1 X89.166 Y69.67 E83.10628
G1 X89.063 Y70.022 E83.11701
G1 X88.869 Y70.427 E83.13014
G1 X88.535 Y70.759 E83.14391
G1 X88.314 Y70.908 E83.15171
G1 X88.027 Y71.034 E83.16088
G1 F2005.7 X87.675 Y71.128 E83.1715
G1 X87.324 Y71.177 E83.18184
G1 F2000 X86.887 Y71.192 E83.19463
G1 X86.29 Y71.138 E83.21216
G1 X85.694 Y70.956 E83.23039
G1 X85.184 Y70.658 E83.24766
G1 X84.781 Y70.281 E83.2638
G1 X84.415 Y69.765 E83.28231
G1 X84.161 Y69.171 E83.3012
G1 X84.018 Y68.543 E83.32004
G1 X83.971 Y67.831 E83.34091
G1 X83.971 Y63.19 E83.47665
G1 X84.002 Y63.082 E83.47994
G1 X84.136 Y62.992 E83.48466
G1 X87.133 Y62.99 E83.57231
G0 F1800 X89.082 Y62.99
G0 X89.252 Y63.083
G1 F1800 E82.77231
G0 F10000 X89.957 Y63.083
G0 X90.047 Y62.387
G0 X98.354 Y62.377
G0 X98.906 Y62.747
G0 X99.652 Y63.504
G0 X100.179 Y64.429
G0 X100.4 Y65.234
G0 X100.546 Y66.972
G0 X99.78 Y66.972
G1 F1800 E83.57231
G1 F2000 X99.675 Y67.003 E83.57552
G1 X97.743 Y66.965 E83.63203
G1 X97.136 Y66.942 E83.6498
G1 X96.628 Y66.892 E83.66473
G1 X96.17 Y66.809 E83.67834
G1 X95.787 Y66.694 E83.69004
G1 X95.485 Y66.561 E83.69969
G1 X95.198 Y66.383 E83.70957
G1 X94.945 Y66.168 E83.71928
G1 X94.731 Y65.915 E83.72897
G1 X94.563 Y65.626 E83.73875
G1 X94.432 Y65.258 E83.75017
G1 X94.366 Y64.904 E83.76071
G1 X94.345 Y64.498 E83.7726
G1 X94.378 Y64.053 E83.78565
G1 X94.478 Y63.669 E83.79725
G1 X94.649 Y63.316 E83.80873
G1 X94.845 Y63.066 E83.81802
G1 X94.955 Y62.995 E83.82185
G1 X98.105 Y62.99 E83.91398
G1 X98.217 Y63.023 E83.91739
G1 X98.517 Y63.224 E83.92796
G1 X98.878 Y63.544 E83.94207
G1 X99.167 Y63.885 E83.95514
G1 X99.418 Y64.269 E83.96856
G1 X99.617 Y64.676 E83.98181
G1 X99.686 Y64.878 E83.98805
G0 F1800 X99.761 Y65.098
G0 X99.841 Y65.493
G0 X99.872 Y65.923
G0 X99.869 Y66.838
G0 X99.78 Y66.972
G1 F1800 E83.18805
G0 F10000 X100.546 Y66.972
G0 X100.697 Y63.417
G0 X100.951 Y62.384
G0 X111.61 Y62.387
G0 X111.682 Y63.083
G0 X110.977 Y63.083
G1 F1800 E83.98805
G1 F2000 X111.008 Y63.19 E83.99131
G1 X111.007 Y68.289 E84.14045
G1 X110.995 Y68.79 E84.1551
G1 X110.955 Y69.245 E84.16846
G1 X110.891 Y69.623 E84.17968
G1 X110.789 Y69.986 E84.1907
G1 X110.654 Y70.286 E84.20033
G1 X110.478 Y70.546 E84.20951
G1 X110.304 Y70.73 E84.21692
G1 X110.065 Y70.902 E84.22553
G1 X109.757 Y71.042 E84.23542
G1 X109.44 Y71.125 E84.24501
G1 X109.065 Y71.177 E84.25608
G1 X108.612 Y71.192 E84.26934
G1 X107.97 Y71.131 E84.2882
G1 X107.407 Y70.956 E84.30544
G1 X106.927 Y70.679 E84.32165
G1 X106.489 Y70.27 E84.33918
G1 X106.133 Y69.747 E84.35768
G1 X105.894 Y69.167 E84.37603
G1 X105.742 Y68.469 E84.39692
G1 X105.695 Y67.722 E84.41882
G1 X105.695 Y63.19 E84.55137
G1 X105.726 Y63.082 E84.55466
G1 X105.86 Y62.992 E84.55938
G1 X108.858 Y62.99 E84.64706
G0 F1800 X110.807 Y62.99
G0 X110.977 Y63.083
G1 F1800 E83.84706
G0 F10000 X111.682 Y63.083
G0 X111.771 Y62.387
G0 X121.483 Y62.387
G0 X121.67 Y73.94
G0 X122.347 Y73.94
G1 F1800 E84.64706
G1 F2000 X122.345 Y68.425 E84.80837
G1 X122.398 Y68.288 E84.81266
G1 X122.527 Y68.225 E84.81686
G1 X126.353 Y68.226 E84.92876
G1 X127.755 Y68.404 E84.9701
G1 X128.808 Y68.963 E85.00497
G1 X129.441 Y69.9 E85.03804
G1 X129.649 Y71.209 E85.07681
G1 X129.438 Y72.435 E85.11319
G1 X128.784 Y73.343 E85.14592
G1 X127.712 Y73.88 E85.18099
G1 X126.268 Y74.053 E85.22353
G1 X124.459 Y74.054 E85.27644
G0 F1800 X122.545 Y74.054
G0 X122.347 Y73.94
G1 F1800 E84.47644
G0 F10000 X121.67 Y73.94
G0 X121.742 Y62.387
G0 X138.531 Y62.377
G0 X139.085 Y62.747
G0 X139.83 Y63.504
G0 X140.357 Y64.429
G0 X140.578 Y65.233
G0 X140.725 Y66.972
G0 X139.959 Y66.972
G1 F1800 E85.27644
G1 F2000 X139.854 Y67.003 E85.27964
G1 X137.921 Y66.965 E85.33619
G1 X137.314 Y66.942 E85.35395
G1 X136.806 Y66.892 E85.36888
G1 X136.377 Y66.814 E85.38164
G1 X135.964 Y66.694 E85.39421
G1 X135.665 Y66.562 E85.40377
G1 X135.376 Y66.383 E85.41372
G1 X135.1 Y66.145 E85.42438
G1 X134.889 Y65.884 E85.43419
G1 X134.741 Y65.627 E85.44287
G1 X134.615 Y65.279 E85.45369
G1 X134.544 Y64.903 E85.46488
G1 X134.523 Y64.498 E85.47674
G1 X134.552 Y64.073 E85.4892
G1 F2005.7 X134.656 Y63.669 E85.50137
G1 X134.827 Y63.316 E85.51281
G1 F2000 X135.023 Y63.066 E85.5221
G1 X135.133 Y62.995 E85.52593
G1 X138.284 Y62.99 E85.61809
G1 X138.396 Y63.023 E85.62151
G1 X138.718 Y63.241 E85.63288
G1 X139.056 Y63.544 E85.64616
G1 X139.345 Y63.885 E85.65923
G1 X139.587 Y64.253 E85.67211
G1 X139.785 Y64.653 E85.68517
G1 X139.939 Y65.098 E85.69894
G1 X140.022 Y65.519 E85.71149
G1 X140.038 Y65.745 E85.71812
G0 F1800 X140.051 Y65.932
G0 X140.048 Y66.838
G0 X139.959 Y66.972
G1 F1800 E84.91812
G0 F10000 X140.725 Y66.972
G0 X140.875 Y63.417
G0 X141.129 Y62.384
G0 X145.255 Y62.387
G0 X145.335 Y71.987
G0 X146.099 Y71.987
G1 F1800 E85.71812
G1 F2000 X146.192 Y71.955 E85.72099
G1 X147.963 Y71.955 E85.77279
G1 X147.963 Y71.077 E85.79847
G1 X146.192 Y71.076 E85.85027
G1 X146.05 Y70.997 E85.85502
G1 X146.01 Y70.894 E85.85825
G1 X146.01 Y64.204 E86.05392
G1 X146.029 Y63.819 E86.0652
G1 X146.073 Y63.531 E86.07372
G1 X146.18 Y63.21 E86.08362
G1 X146.291 Y63.044 E86.08946
G1 X146.397 Y62.992 E86.09291
G1 X150.25 Y62.99 E86.2056
G1 X150.419 Y63.082 E86.21123
G1 X150.45 Y63.19 E86.21452
G1 X150.45 Y71.955 E86.47088
G1 X151.808 Y71.955 E86.5106
G1 X151.808 Y63.19 E86.76696
G1 X151.839 Y63.082 E86.77024
G1 X151.973 Y62.992 E86.77496
G1 X155.169 Y62.99 E86.86844
G1 X155.326 Y63.065 E86.87353
G1 X155.37 Y63.19 E86.87741
G1 X155.369 Y69.737 E87.06889
G1 X155.355 Y70.87 E87.10203
G1 X155.318 Y71.955 E87.13379
G1 X156.578 Y71.955 E87.17064
G1 X156.602 Y71.443 E87.18563
G1 X156.646 Y71.352 E87.18859
G1 X156.734 Y71.293 E87.19169
G1 X156.879 Y71.299 E87.19593
G1 X158.575 Y72.033 E87.24998
G1 X158.951 Y72.119 E87.26126
G1 X159.476 Y72.156 E87.27666
G1 X159.91 Y72.097 E87.28947
G1 X159.91 Y70.88 E87.32506
G1 X159.722 Y70.914 E87.33065
G1 X159.148 Y70.937 E87.34745
G1 X158.609 Y70.874 E87.36332
G1 X158.129 Y70.689 E87.37837
G1 X157.664 Y70.332 E87.39551
G1 X157.322 Y69.886 E87.41195
G1 X157.064 Y69.351 E87.42933
G1 X156.869 Y68.678 E87.44982
G1 X156.765 Y67.963 E87.47095
G1 X156.726 Y67.09 E87.49651
G1 X156.726 Y61.79 E87.65153
G1 X147.97 Y61.788 E87.90762
G1 X147.438 Y61.692 E87.92343
G1 X147.009 Y61.649 E87.93604
G1 X146.575 Y61.635 E87.94874
G1 X145.669 Y61.781 E87.97559
G1 X142.872 Y61.788 E88.05739
G1 X142.495 Y61.73 E88.06855
G1 X142.184 Y61.703 E88.07768
G1 X141.852 Y61.693 E88.08739
